!!!!SEGMENT: pl-cz--iii-680--006_volckmer-augustin--missa-in-c-sanctus.krn
!!!cenid: 17xx:1169
!!!COM: Volckmer, Augustin
!!!COM-rismID: pe30020656
!!!CDT: 1755-~1820
!!!CNT:
!!!OPR: Missa in C
!!!OTL: Sanctus
!!!OMV: 006
!!!PDT:
!!!AGN: Sacred; Mass
!!!SMS-siglum: PL-CZ
!!!SMS-shelfmark: III-680
!!!SMS-shelfwork: 001-006 M
!!!SMS-variant:
!!!SMS-altvar:
!!!NIFC-rismSourceID: 300001393
!!!NIFC-rismChildID: 300001393
!!!NIFC-islandoraID: pl-cz:40073
!!!URL-pdf-islandora: https://repozytorium.nifc.pl/islandora/object/pl-cz%3A40073/datastream/PDF/view
!!!URL-scan: https://polish.musicsources.pl/pl/lokalizacje/galeria/rekopisy/6979/1 @EN{Scan on Polish Music Sources Website} @PL{Skany w portalu Dziedzictwo Muzyki Polskiej w otwartym dostępie}
!!!IIIF:
!!!ONB-nifc: UWAGA: części Mszy: Kyrie, Gloria, Credo, Et incarnatus, Et resurrexit, Sanctus, Benedictus, Agnus Dei, Dona nobis
!!!AIN: 1 alto 1 bass 2 clrno 2 cor 1 fagot 2 oboe 1 organ 1 soprn 1 tenor 1 timpa 1 viola 2 violn
!!!key: C
**kern	**fba	**dynam	**kern	**dynam	**kern	**dynam	**kern	**dynam	**kern	**text	**dynam	**kern	**text	**dynam	**kern	**text	**dynam	**kern	**text	**dynam	**kern	**dynam	**kern	**kern	**dynam	**kern	**dynam	**kern	**dynam	**kern	**dynam	**kern	**dynam
*part15	*part15	*part15	*part14	*part14	*part13	*part13	*part12	*part12	*part11	*part11	*part11	*part10	*part10	*part10	*part9	*part9	*part9	*part8	*part8	*part8	*part7	*part7	*part6	*part5	*part5	*part4	*part4	*part3	*part3	*part2	*part2	*part1	*part1
*staff15	*	*	*staff14	*	*staff13	*	*staff12	*	*staff11	*staff11	*	*staff10	*staff10	*	*staff9	*staff9	*	*staff8	*staff8	*	*staff7	*	*staff6	*staff5	*	*staff4	*	*staff3	*	*staff2	*	*staff1	*
*I"Organo. e Fagotti.	*	*	*I"Viola. per expressivo.	*	*I"Violino Secundo.	*	*I"Violino Primo.	*	*I"Baſso.	*	*	*I"Tenore.	*	*	*I"Alto.	*	*	*I"Canto	*	*	*I"Timpano.	*	*I"Clarino Secondo	*I"Clarino. Primo	*	*I"Corno Secundo	*	*I"Corno Primo	*	*I"Hoboi Secundo	*	*I"Hoboi Primo.	*
*I'org e fag	*	*	*I'vla	*	*I'vl II	*	*I'vl I	*	*I'B	*	*	*I'T	*	*	*I'A	*	*	*I'S	*	*	*I'timp	*	*I'clno II in C	*I'clno I in C	*	*I'cor II in C	*	*I'cor I in C	*	*I'ob II	*	*I'ob I	*
*ICklav	*	*	*ICstr	*	*ICstr	*	*ICstr	*	*ICvox	*	*	*ICvox	*	*	*ICvox	*	*	*ICvox	*	*	*ICidio	*	*ICbras	*ICbras	*	*ICbras	*	*ICbras	*	*ICww	*	*ICww	*
*Iorgan&Ifagot	*	*	*Iviola	*	*Ivioln	*	*Ivioln	*	*Ibass	*	*	*Itenor	*	*	*Ialto	*	*	*Isoprn	*	*	*Itimpa	*	*Iclrno	*Iclrno	*	*Icor	*	*Icor	*	*Ioboe	*	*Ioboe	*
*clefF4	*	*	*clefC3	*	*clefG2	*	*clefG2	*	*clefF4	*	*	*clefC4	*	*	*clefC3	*	*	*clefC1	*	*	*clefF4	*	*clefG2	*clefG2	*	*clefG2	*	*clefG2	*	*clefG2	*	*clefG2	*
*	*	*	*	*	*	*	*	*	*	*	*	*	*	*	*	*	*	*	*	*	*	*	*	*	*	*Trd0c0	*	*Trd0c0	*	*	*	*	*
*k[]	*	*	*k[]	*	*k[]	*	*k[]	*	*k[]	*	*	*k[]	*	*	*k[]	*	*	*k[]	*	*	*k[]	*	*k[]	*k[]	*	*k[]	*	*k[]	*	*k[]	*	*k[]	*
*C:	*	*	*C:	*	*C:	*	*C:	*	*C:	*	*	*C:	*	*	*C:	*	*	*C:	*	*	*C:	*	*C:	*C:	*	*C:	*	*C:	*	*C:	*	*C:	*
*M4/4	*	*	*M4/4	*	*M4/4	*	*M4/4	*	*M4/4	*	*	*M4/4	*	*	*M4/4	*	*	*M4/4	*	*	*M4/4	*	*M4/4	*M4/4	*	*M4/4	*	*M4/4	*	*M4/4	*	*M4/4	*
*met(c)	*	*	*met(c)	*	*met(c)	*	*met(c)	*	*met(c)	*	*	*met(c)	*	*	*met(c)	*	*	*met(c)	*	*	*met(c)	*	*met(c)	*met(c)	*	*met(c)	*	*met(c)	*	*met(c)	*	*met(c)	*
=1	=1	=1	=1	=1	=1	=1	=1	=1	=1	=1	=1	=1	=1	=1	=1	=1	=1	=1	=1	=1	=1	=1	=1	=1	=1	=1	=1	=1	=1	=1	=1	=1	=1
!	!	!	!	!	!LO:TX:t=P:problem:all\right	!	!	!	!	!	!	!	!	!	!	!	!	!	!	!	!LO:TX:t=P:problem: 3 zapisane ołówkiem	!	!	!LO:TX:a:B:t=Lento Molto	!	!	!	!	!	!	!	!	!
!LO:TX:a:B:t=Lento Molto	!	!	!LO:TX:a:B:t=Lento Molto.	!	!LO:TX:a:B:t=Lento Molto.	!	!LO:TX:t=P:problem:all\right	!	!LO:TX:a:B:t=Lento Molto	!	!	!LO:TX:a:B:t=Lento Molto	!	!	!LO:TX:a:B:t=Lento Molto	!	!	!LO:TX:a:B:t=Lento Molto	!	!	!LO:TX:a:t=3:color=grey	!	!	!LO:TX:a:t=3	!	!LO:TX:a:B:t=Lento Molto	!	!LO:TX:a:B:t=Lento Molto	!	!LO:TX:a:t=3	!	!LO:TX:a:t=3	!
!LO:TX:a:t=2	!	!	!LO:TX:a:i:t=Dolce:color=red	!LO:DY:b:t=piano:color=red	!LO:TX:a:i:t=Dolce:color=red	!LO:DY:a:t=pia:color=red	!LO:TX:a:B:t=Lento Molto.	!	!LO:TX:a:t=2	!	!	!LO:TX:a:t=2	!	!	!LO:TX:a:t=2	!	!	!LO:TX:a:t=2	!	!	!LO:TX:a:B:t=Lento Molto	!	!LO:TX:t=P:problem:brak partii w źródle	!	!LO:TX:a:t=3	!	!LO:TX:a:t=3	!	!LO:TX:a:B:t=Lento Molto	!	!LO:TX:a:B:t=Lento Molto	!	!
0r	.	.	4C/ 4G	p	4G/ 4e	p	8r	.	0r	.	.	0r	.	.	0r	.	.	0r	.	.	0r	.	1ryy	0r	.	0r	.	0r	.	0r	.	0r	.
!	!	!	!	!	!	!	!	!LO:DY:b:t=pia:color=red	!	!	!	!	!	!	!	!	!	!	!	!	!	!	!	!	!	!	!	!	!	!	!	!	!
.	.	.	.	.	.	.	(8g/L	p	.	.	.	.	.	.	.	.	.	.	.	.	.	.	.	.	.	.	.	.	.	.	.	.	.
!	!	!	!	!	!	!	!LO:TX:b:i:t=Dolce:color=red	!	!	!	!	!	!	!	!	!	!	!	!	!	!	!	!	!	!	!	!	!	!	!	!	!	!
.	.	.	8r	.	8r	.	8ee\	.	.	.	.	.	.	.	.	.	.	.	.	.	.	.	.	.	.	.	.	.	.	.	.	.	.
.	.	.	8c/	.	8e/	.	8cc\J)	.	.	.	.	.	.	.	.	.	.	.	.	.	.	.	.	.	.	.	.	.	.	.	.	.	.
.	.	.	8G/	.	8d/	.	(16cc\LL	.	.	.	.	.	.	.	.	.	.	.	.	.	.	.	.	.	.	.	.	.	.	.	.	.	.
.	.	.	.	.	.	.	16b\JJ)	.	.	.	.	.	.	.	.	.	.	.	.	.	.	.	.	.	.	.	.	.	.	.	.	.	.
.	.	.	4G/	.	(4d/	.	(4b\	.	.	.	.	.	.	.	.	.	.	.	.	.	.	.	.	.	.	.	.	.	.	.	.	.	.
.	.	.	8A/	.	8e/)	.	8cc\)	.	.	.	.	.	.	.	.	.	.	.	.	.	.	.	.	.	.	.	.	.	.	.	.	.	.
=2	=2	=2	=2	=2	=2	=2	=2	=2	=2	=2	=2	=2	=2	=2	=2	=2	=2	=2	=2	=2	=2	=2	=2	=2	=2	=2	=2	=2	=2	=2	=2	=2	=2
.	.	.	8F/L	.	(8c/L	.	(16b-X\LL	.	.	.	.	.	.	.	.	.	.	.	.	.	.	.	1ryy	.	.	.	.	.	.	.	.	.	.
.	.	.	.	.	.	.	16a\JJ)	.	.	.	.	.	.	.	.	.	.	.	.	.	.	.	.	.	.	.	.	.	.	.	.	.	.
.	.	.	8F/	.	8d/	.	(16.ff\LL	.	.	.	.	.	.	.	.	.	.	.	.	.	.	.	.	.	.	.	.	.	.	.	.	.	.
.	.	.	.	.	.	.	32dd\JJk)	.	.	.	.	.	.	.	.	.	.	.	.	.	.	.	.	.	.	.	.	.	.	.	.	.	.
.	.	.	8G/	.	8e/	.	(8cc\L	.	.	.	.	.	.	.	.	.	.	.	.	.	.	.	.	.	.	.	.	.	.	.	.	.	.
.	.	.	8G/J	.	8f/J)	.	8bn\J)	.	.	.	.	.	.	.	.	.	.	.	.	.	.	.	.	.	.	.	.	.	.	.	.	.	.
.	.	.	8c/L	.	(4f/	.	(4dd\	.	.	.	.	.	.	.	.	.	.	.	.	.	.	.	.	.	.	.	.	.	.	.	.	.	.
.	.	.	8G/	.	.	.	.	.	.	.	.	.	.	.	.	.	.	.	.	.	.	.	.	.	.	.	.	.	.	.	.	.	.
.	.	.	8C/J	.	8e/|)	.	8cc\|)	.	.	.	.	.	.	.	.	.	.	.	.	.	.	.	.	.	.	.	.	.	.	.	.	.	.
!	!	!	!	!	!	!	!	!LO:DY:b:t=pia:color=red	!	!	!	!	!	!	!	!	!	!	!	!	!	!	!	!	!	!	!	!	!	!	!	!	!
.	.	.	8r	.	8r	.	8r	p	.	.	.	.	.	.	.	.	.	.	.	.	.	.	.	.	.	.	.	.	.	.	.	.	.
=3	=3	=3	=3	=3	=3	=3	=3	=3	=3	=3	=3	=3	=3	=3	=3	=3	=3	=3	=3	=3	=3	=3	=3	=3	=3	=3	=3	=3	=3	=3	=3	=3	=3
*	*	*	*	*	*	*	*	*	*	*	*	*	*	*	*2\right	*	*	*	*	*	*	*	*	*	*	*	*	*	*	*	*	*	*
!LO:TX:b:t=pedal	!	!LO:DY:b:t=pia:color=red	!	!	!	!LO:DY:b:t=pia:color=red	!	!	!	!	!LO:DY:a:t=pia:color=red	!	!	!LO:DY:b:t=pia:color=red	!	!	!LO:DY:b:t=pia:color=red	!	!	!LO:DY:b:t=pia:color=red	!	!	!	!	!	!	!	!	!	!	!	!	!
1CC 1C	.	p	16.g\LL	.	16.e/LL	p	16.cc\LL	.	2.C/	Sanc-	p	2G/	Sanc-	p	2e\	Sanc-	p	(4cc\	San[c]-	p	1r	.	1ryy	1r	.	1r	.	1r	.	1r	.	1r	.
.	.	.	32g\K	.	32e/K	.	32cc\K	.	.	.	.	.	.	.	.	.	.	.	.	.	.	.	.	.	.	.	.	.	.	.	.	.	.
.	.	.	16.g\	.	16.e/	.	16.cc\	.	.	.	.	.	.	.	.	.	.	.	.	.	.	.	.	.	.	.	.	.	.	.	.	.	.
.	.	.	32g\JJk	.	32e/JJk	.	32cc\JJk	.	.	.	.	.	.	.	.	.	.	.	.	.	.	.	.	.	.	.	.	.	.	.	.	.	.
.	.	.	16.g\LL	.	16.e/LL	.	16.b-X\LL	.	.	.	.	.	.	.	.	.	.	4b-X\)	.	.	.	.	.	.	.	.	.	.	.	.	.	.	.
.	.	.	32g\K	.	32e/K	.	32b-\K	.	.	.	.	.	.	.	.	.	.	.	.	.	.	.	.	.	.	.	.	.	.	.	.	.	.
.	.	.	16.g\	.	16.e/	.	16.b-\	.	.	.	.	.	.	.	.	.	.	.	.	.	.	.	.	.	.	.	.	.	.	.	.	.	.
.	.	.	32g\JJk	.	32e/JJk	.	32b-\JJk	.	.	.	.	.	.	.	.	.	.	.	.	.	.	.	.	.	.	.	.	.	.	.	.	.	.
.	.	.	.	.	.	.	16qqb-/	.	.	.	.	.	.	.	.	.	.	.	.	.	.	.	.	.	.	.	.	.	.	.	.	.	.
!	!	!	!	!LO:HP:b:t=cres:color=red	!	!	!	!	!	!	!	!	!	!	!	!	!	!	!	!	!	!	!	!	!	!	!	!	!	!	!	!	!
.	.	.	16.c\LL	<	16.f/LL	.	16.a\LL	.	.	.	.	(>4c\	-tus	.	2f\	-tus	.	4a\	-tus	.	.	.	.	.	.	.	.	.	.	.	.	.	.
.	.	.	32c\K	.	32f/K	.	32a\K	.	.	.	.	.	.	.	.	.	.	.	.	.	.	.	.	.	.	.	.	.	.	.	.	.	.
.	.	.	16.c\	.	16.f/	.	16.a\	.	.	.	.	.	.	.	.	.	.	.	.	.	.	.	.	.	.	.	.	.	.	.	.	.	.
.	.	.	32c\JJk	.	32f/JJk	.	32a\JJk	.	.	.	.	.	.	.	.	.	.	.	.	.	.	.	.	.	.	.	.	.	.	.	.	.	.
.	.	.	16.d\LL	.	16.f/LL	.	16.bn\LL	.	4C/	-tus	.	4d\)	.	.	.	.	.	(4bn\	Sanc-	.	.	.	.	.	.	.	.	.	.	.	.	.	.
.	.	.	32d\K	.	32f/K	.	32b\K	.	.	.	.	.	.	.	.	.	.	.	.	.	.	.	.	.	.	.	.	.	.	.	.	.	.
.	.	.	16.d\	.	16.f/	.	16.b\	.	.	.	.	.	.	.	.	.	.	.	.	.	.	.	.	.	.	.	.	.	.	.	.	.	.
.	.	.	32d\JJk	.	32f/JJk	.	32b\JJk	.	.	.	.	.	.	.	.	.	.	.	.	.	.	.	.	.	.	.	.	.	.	.	.	.	.
!	!	!	!LO:LB:g=original	!	!	!	!LO:LB:g=original	!	!	!	!	!	!	!	!	!	!	!	!	!	!	!	!	!	!	!	!	!	!	!	!	!	!
=4	=4	=4	=4	=4	=4	=4	=4	=4	=4	=4	=4	=4	=4	=4	=4	=4	=4	=4	=4	=4	=4	=4	=4	=4	=4	=4	=4	=4	=4	=4	=4	=4	=4
!	!	!	!	!	!	!	!	!LO:HP:b:t=cres:color=red	!	!	!	!	!	!	!	!	!	!	!	!	!	!	!	!	!	!	!	!	!	!	!	!	!
.	.	.	.	.	.	.	16qqdd/	<	.	.	.	.	.	.	.	.	.	.	.	.	.	.	.	.	.	.	.	.	.	.	.	.	.
!LO:TX:a:t=organo	!	!	!	!	!	!	!	!	!	!	!	!	!	!	!	!	!	!	!	!	!	!	!	!	!	!	!	!	!	!	!	!	!
*	*	*	*	*	*	*	*	*	*	*ij	*	*	*ij	*	*	*ij	*	*	*	*	*	*	*	*	*	*	*	*	*	*	*	*2\right	*
!LO:TX:b:t=Tutti	!	!LO:HP:a:t=cres:color=red	!	!	!	!LO:HP:b:t=cres:color=red	!	!	!	!	!LO:HP:a:t=cres:color=red	!	!	!LO:HP:b:t=cres:color=red	!	!	!LO:HP:b:t=cres:color=red	!	!	!LO:HP:b:t=cres:color=red	!	!LO:DY:b:t=pia:color=red	!	!	!LO:DY:b:t=piano:color=red	!	!LO:DY:a:t=pia:color=red	!	!LO:DY:b:t=pia:color=red	!	!LO:DY:color=red	!	!LO:DY:color=red
2CC/ 2C	8 3_	<	16.G/LL	.	16.e/LL	<	16.cc\LL	.	4C/	Sanc-	<	4G/	Sanc-	<	4e\	Sanc-	<	4cc\)	.	<	4C/	p	1ryy	4cc\	p	1c	p	[1cc	p	(4cc\	p	2ee\	p
.	.	.	32G/K	.	32e/K	.	32cc\K	.	.	.	.	.	.	.	.	.	.	.	.	.	.	.	.	.	.	.	.	.	.	.	.	.	.
.	.	.	16.G/	.	16.e/	.	16.cc\	.	.	.	.	.	.	.	.	.	.	.	.	.	.	.	.	.	.	.	.	.	.	.	.	.	.
.	.	.	32G/JJk	.	32e/JJk	.	32cc\JJk	.	.	.	.	.	.	.	.	.	.	.	.	.	.	.	.	.	.	.	.	.	.	.	.	.	.
.	.	.	16.G/LL	.	16.e/LL	.	16.b-X\LL	.	4C/	-tus	.	4G/	-tus	.	4e\	-tus	.	4b-X\	-tus	.	4r	.	.	4r	.	.	.	.	.	4b-X\	.	.	.
.	-7 x	.	32G/K	.	32e/K	.	32b-\K	.	.	.	.	.	.	.	.	.	.	.	.	.	.	.	.	.	.	.	.	.	.	.	.	.	.
.	.	.	16.G/	.	16.e/	.	16.b-\	.	.	.	.	.	.	.	.	.	.	.	.	.	.	.	.	.	.	.	.	.	.	.	.	.	.
.	.	.	32G/JJk	.	32e/JJk	.	32b-\JJk	.	.	.	.	.	.	.	.	.	.	.	.	.	.	.	.	.	.	.	.	.	.	.	.	.	.
.	.	.	.	.	.	.	16qqb-/	f	.	.	.	.	.	.	.	.	.	.	.	.	.	.	.	.	.	.	.	.	.	.	.	.	.
!	!	!	!	!	!LO:LB:g=original	!	!	!	!	!	!	!	!	!	!	!	!	!	!	!	!	!	!	!	!	!	!	!	!	!	!	!	!
*	*	*	*	*	*	*	*	*	*	*Xij	*	*	*Xij	*	*	*Xij	*	*	*	*	*	*	*	*	*	*	*	*	*	*	*	*	*
!	!	!LO:DY:b:t=forto:color=red	!	!LO:DY:a:t=forto:color=red	!	!LO:DY:b:t=forto:color=red	!	!	!	!	!LO:DY:b:t=fort:color=red	!	!	!LO:DY:a:t=fort:color=red	!	!	!LO:DY:b:t=fort:color=red	!	!	!LO:DY:b:t=for:color=red	!	!	!	!	!	!	!	!	!	!	!LO:DY:color=red	!	!LO:DY:color=red
2CC/ 2C	6 4_	f	16.c\LL	f	16.f/LL	f	16.a\LL	.	2C/	Sanc-	f	(4c\	Sanc-	f	2f\	Sanc-	f	(4a\	Sanc-	f	2C/	.	.	8cc\L	.	.	.	.	.	4a\	f	2ff\	f
.	.	.	32c\K	.	32f/K	.	32a\K	.	.	.	.	.	.	.	.	.	.	.	.	.	.	.	.	.	.	.	.	.	.	.	.	.	.
.	.	.	16.c\	.	16.f/	.	16.a\	.	.	.	.	.	.	.	.	.	.	.	.	.	.	.	.	16cc\L	.	.	.	.	.	.	.	.	.
.	.	.	.	.	.	.	.	.	.	.	.	.	.	.	.	.	.	.	.	.	.	.	.	16cc\JJ	.	.	.	.	.	.	.	.	.
.	.	.	32c\JJk	.	32f/JJk	.	32a\JJk	.	.	.	.	.	.	.	.	.	.	.	.	.	.	.	.	.	.	.	.	.	.	.	.	.	.
!	!	!	!	!	!LO:TX:t=P:problem:fragment oznaczony znakiem repetycji czerwonym atramentem	!	!	!	!	!	!	!	!	!	!	!	!	!	!	!	!	!	!	!	!	!	!	!	!	!	!	!	!
.	n7 x	.	16.d\LL	.	16.f/LLyy	.	16.bn\LL	.	.	.	.	4d\)	.	.	.	.	.	4bn\)	.	.	.	.	.	8cc\L	.	.	.	.	.	4bn\)	.	.	.
.	.	.	32d\K	.	32f/Kyy	.	32b\K	.	.	.	.	.	.	.	.	.	.	.	.	.	.	.	.	.	.	.	.	.	.	.	.	.	.
.	.	.	16.d\	.	16.f/yy	.	16.b\	.	.	.	.	.	.	.	.	.	.	.	.	.	.	.	.	8cc\J	.	.	.	.	.	.	.	.	.
.	.	.	32d\JJk	.	32f/JJkyy	.	32b\JJk	.	.	.	.	.	.	.	.	.	.	.	.	.	.	.	.	.	.	.	.	.	.	.	.	.	.
=5	=5	=5	=5	=5	=5	=5	=5	=5	=5	=5	=5	=5	=5	=5	=5	=5	=5	=5	=5	=5	=5	=5	=5	=5	=5	=5	=5	=5	=5	=5	=5	=5	=5
!	!	!	!	!	!	!	!LO:TX:t=P:problem:mixed beam	!LO:DY:b:color=red	!	!	!	!	!	!	!	!	!	!	!	!	!	!LO:DY:color=red	!	!	!LO:DY:b:t=for:color=red	!	!LO:DY:a:color=red	!	!LO:DY:color=red	!	!	!	!
4CC/ 4C	X X	.	4c\	.	4G/ 4e	.	16cc'\LL	p	4C/	-tus	.	4G/	-tus	.	4e\	-tus	.	4cc\	-tus	.	4C/	f	1ryy	4cc\	f	4c/	f	4cc\]	f	4cc\	.	4ee\	.
.	.	.	.	.	.	.	16c'/	.	.	.	.	.	.	.	.	.	.	.	.	.	.	.	.	.	.	.	.	.	.	.	.	.	.
.	.	.	.	.	.	.	16e'/	.	.	.	.	.	.	.	.	.	.	.	.	.	.	.	.	.	.	.	.	.	.	.	.	.	.
.	.	.	.	.	.	.	16g'/JJ	.	.	.	.	.	.	.	.	.	.	.	.	.	.	.	.	.	.	.	.	.	.	.	.	.	.
4r	.	.	4r	.	4r	.	16cc'\LL	.	4r	.	.	4r	.	.	4r	.	.	4r	.	.	4r	.	.	4r	.	4r	.	4r	.	4r	.	4r	.
.	.	.	.	.	.	.	16ee'\	.	.	.	.	.	.	.	.	.	.	.	.	.	.	.	.	.	.	.	.	.	.	.	.	.	.
.	.	.	.	.	.	.	16gg'\	.	.	.	.	.	.	.	.	.	.	.	.	.	.	.	.	.	.	.	.	.	.	.	.	.	.
.	.	.	.	.	.	.	16ee'\JJ	.	.	.	.	.	.	.	.	.	.	.	.	.	.	.	.	.	.	.	.	.	.	.	.	.	.
2r	.	.	4C/ 4c	.	4G/ 4g	.	16ccc\KL	.	2r	.	.	2r	.	.	2r	.	.	2r	.	.	2r	.	.	2r	.	4c/	.	4g/	.	2r	.	2r	.
.	.	.	.	.	.	.	8gg\	.	.	.	.	.	.	.	.	.	.	.	.	.	.	.	.	.	.	.	.	.	.	.	.	.	.
.	.	.	.	.	.	.	16ee\Jk	.	.	.	.	.	.	.	.	.	.	.	.	.	.	.	.	.	.	.	.	.	.	.	.	.	.
.	.	.	8C/L 8c	.	8G/L 8g	.	16gg\KL	.	.	.	.	.	.	.	.	.	.	.	.	.	.	.	.	.	.	8c/L	.	8g/L	.	.	.	.	.
.	.	.	.	.	.	.	8ee\	.	.	.	.	.	.	.	.	.	.	.	.	.	.	.	.	.	.	.	.	.	.	.	.	.	.
.	.	.	8C/J 8c	.	8G/J 8g	.	.	.	.	.	.	.	.	.	.	.	.	.	.	.	.	.	.	.	.	8c/J	.	8g/J	.	.	.	.	.
.	.	.	.	.	.	.	16cc\Jk	.	.	.	.	.	.	.	.	.	.	.	.	.	.	.	.	.	.	.	.	.	.	.	.	.	.
=6	=6	=6	=6	=6	=6	=6	=6	=6	=6	=6	=6	=6	=6	=6	=6	=6	=6	=6	=6	=6	=6	=6	=6	=6	=6	=6	=6	=6	=6	=6	=6	=6	=6
!	!	!	!	!	!	!	!	!LO:DY:color=red	!	!	!	!	!	!	!	!	!	!	!	!	!LO:TX:a:t=3	!	!	!LO:TX:a:t=3	!	!LO:TX:a:t=3	!	!LO:TX:a:t=3	!	!	!	!	!LO:DY:b:t=for:color=red
8.AA/L	#	.	8.g\L	.	8.e/L	.	8.cc#X\L	f	4A\	Do-	.	4e\	Do-	.	4g\	Do-	.	4cc#X\	Do-	.	0r	.	1ryy	0r	.	0r	.	0r	.	8.a/L	.	8.cc#X\L	f
16AA/K	.	.	16g\K	.	16e/K	.	16cc#\K	.	.	.	.	.	.	.	.	.	.	.	.	.	.	.	.	.	.	.	.	.	.	16a/K	.	16cc#\K	.
8AA/	.	.	8.g\	.	8e/	.	8cc#\	.	8A\	-mi-	.	8e\	-mi-	.	8g\	-mi-	.	8cc#\	-mi-	.	.	.	.	.	.	.	.	.	.	8a/	.	8cc#\	.
8AA/J	.	.	.	.	8e/J	.	8cc#\J	.	8A\	-nus	.	8e\	-nus	.	8g\	-nus	.	8cc#\	-nus	.	.	.	.	.	.	.	.	.	.	8a/J	.	8cc#\J	.
.	.	.	16g\Jk	.	.	.	.	.	.	.	.	.	.	.	.	.	.	.	.	.	.	.	.	.	.	.	.	.	.	.	.	.	.
4AA/	3	.	4g\	.	4e/	.	4cc#\	.	4A\	De-	.	4e\	De-	.	4g\	De-	.	4cc#\	De-	.	.	.	.	.	.	.	.	.	.	4a/	.	4cc#\	.
4D\	4	.	4a\	.	4f/	.	4dd\	.	4D\	-us	.	4d\	-us	.	4f\	-us	.	4dd\	-us	.	.	.	.	.	.	.	.	.	.	4f/	.	4dd\	.
=7	=7	=7	=7	=7	=7	=7	=7	=7	=7	=7	=7	=7	=7	=7	=7	=7	=7	=7	=7	=7	=7	=7	=7	=7	=7	=7	=7	=7	=7	=7	=7	=7	=7
4A\	#	.	4a\	.	4f/	.	4dd\	.	4A\	Sa-	.	4d\	Sa-	.	4f\	Sa-	.	4dd\	Sa-	.	.	.	1ryy	.	.	.	.	.	.	4f/	.	4dd\	.
!	!	!	!	!	!	!	!	!	!	!	!	!LO:SIC:s=4c#\	!	!	!	!	!	!	!	!	!	!	!	!	!	!	!	!	!	!	!	!	!
4AA/	.	.	4a\	.	4e/	.	4cc#X\	.	4AA/	-ba-	.	4c\	-ba-	.	4e\	-ba-	.	4cc#X\	-ba-	.	.	.	.	.	.	.	.	.	.	4e/	.	4cc#X\	.
4D/	.	.	4a\	.	4f/	.	4dd\	.	4D/	-oth	.	4d\	-oth	.	4f\	-oth	.	4dd\	-oth	.	.	.	.	.	.	.	.	.	.	4f/	.	4dd\	.
4BB/	5 3	.	4b\	.	4a/	.	4ffn\	.	4r	.	.	4r	.	.	4r	.	.	4r	.	.	.	.	.	.	.	.	.	.	.	4a/	.	4ffn\	.
!LO:LB:g=original	!	!	!	!	!	!	!LO:LB:g=original	!	!	!	!	!	!	!	!	!	!	!	!	!	!	!	!	!	!	!	!	!	!	!	!	!	!
=8	=8	=8	=8	=8	=8	=8	=8	=8	=8	=8	=8	=8	=8	=8	=8	=8	=8	=8	=8	=8	=8	=8	=8	=8	=8	=8	=8	=8	=8	=8	=8	=8	=8
!	!	!	!	!	!	!	!	!	!LO:TX:a:t=3	!	!	!LO:TX:a:t=3	!	!	!	!	!	!LO:TX:a:t=3	!	!	!	!	!	!	!	!	!	!	!	!	!	!	!
4C/	.	.	4cc\	.	2g/	.	4ee\	.	0r	.	.	0r	.	.	0r	.	.	0r	.	.	1r	.	1ryy	1r	.	1r	.	1r	.	4g/	.	4ee\	.
4BB/	.	.	4b\	.	.	.	4dd\	.	.	.	.	.	.	.	.	.	.	.	.	.	.	.	.	.	.	.	.	.	.	4b/	.	4dd\	.
2AA/	3 7#r	.	2a\	.	4g/	.	2ccn\	.	.	.	.	.	.	.	.	.	.	.	.	.	.	.	.	.	.	.	.	.	.	4g/	.	2ccn\	.
.	.	.	.	.	4f#X/	.	.	.	.	.	.	.	.	.	.	.	.	.	.	.	.	.	.	.	.	.	.	.	.	4f#X/	.	.	.
=9	=9	=9	=9	=9	=9	=9	=9	=9	=9	=9	=9	=9	=9	=9	=9	=9	=9	=9	=9	=9	=9	=9	=9	=9	=9	=9	=9	=9	=9	=9	=9	=9	=9
4GG/	.	.	2G/ 2d	.	8g/L	.	(16b\LL	.	.	.	.	.	.	.	.	.	.	.	.	.	4GG/	.	1ryy	4g/	.	2G/	.	2g/	.	4g/	.	4b\	.
.	.	.	.	.	.	.	16gg\)	.	.	.	.	.	.	.	.	.	.	.	.	.	.	.	.	.	.	.	.	.	.	.	.	.	.
.	.	.	.	.	16b/L	.	(16dd\	.	.	.	.	.	.	.	.	.	.	.	.	.	.	.	.	.	.	.	.	.	.	.	.	.	.
.	.	.	.	.	16cc/JJ	.	16ee\JJ)	.	.	.	.	.	.	.	.	.	.	.	.	.	.	.	.	.	.	.	.	.	.	.	.	.	.
4r	.	.	.	.	(16cc/LL	.	(16ee\LL	.	.	.	.	.	.	.	.	.	.	.	.	.	4r	.	.	4r	.	.	.	.	.	4r	.	4r	.
.	.	.	.	.	16b/)	.	16dd\)	.	.	.	.	.	.	.	.	.	.	.	.	.	.	.	.	.	.	.	.	.	.	.	.	.	.
.	.	.	.	.	(16b/	.	(16dd\	.	.	.	.	.	.	.	.	.	.	.	.	.	.	.	.	.	.	.	.	.	.	.	.	.	.
.	.	.	.	.	16a/JJ)	.	16cc\JJ)	.	.	.	.	.	.	.	.	.	.	.	.	.	.	.	.	.	.	.	.	.	.	.	.	.	.
4r	.	.	4G/ 4d	.	4g/	.	4b\	.	.	.	.	.	.	.	.	.	.	.	.	.	4r	.	.	4r	.	4G/	.	4g/	.	4r	.	4r	.
!	!	!LO:DY:color=red	!	!LO:DY:color=red	!	!LO:DY:a:color=red	!	!LO:DY:a:color=red	!	!	!	!	!	!	!	!	!	!	!	!	!	!LO:DY:a:color=red	!	!	!LO:DY:color=red	!	!LO:DY:a:color=red	!	!LO:DY:color=red	!	!LO:DY:color=red	!	!LO:DY:a:color=red
8GG|/L	.	pp	8G/L	pp	8G/L 8g	pp	8G/L 8g	pp	.	.	.	.	.	.	.	.	.	.	.	.	8GG/L	pp	.	8g/L	pp	8G/L	pp	8g/L	pp	8g|/L	pp	8g/L	pp
8GG|/J	.	.	8G/J	.	8G/J 8g	.	8G/J 8g	.	.	.	.	.	.	.	.	.	.	.	.	.	8GG/J	.	.	8g/J	.	8G/J	.	8g/J	.	8g|/J	.	8g/J	.
=10	=10	=10	=10	=10	=10	=10	=10	=10	=10	=10	=10	=10	=10	=10	=10	=10	=10	=10	=10	=10	=10	=10	=10	=10	=10	=10	=10	=10	=10	=10	=10	=10	=10
2GG/	.	.	2G/	.	2G/ 2g	.	2G/ 2g	.	1r	.	.	1r	.	.	1r	.	.	1r	.	.	2GG/	.	1ryy	2g/	.	2G/	.	2g/	.	2g/	.	2g/	.
2r	.	.	2r	.	2r	.	2r	.	.	.	.	.	.	.	.	.	.	.	.	.	2r	.	.	2r	.	2r	.	2r	.	2r	.	2r	.
*clefC1	*	*	*	*	*	*	*	*	*	*	*	*	*	*	*	*	*	*	*	*	*	*	*	*	*	*	*	*	*	*	*	*	*
!	!	!	!LO:LB:g=original	!	!LO:LB:g=original	!	!	!	!LO:LB:g=original	!	!	!LO:LB:g=original	!	!	!	!	!	!LO:LB:g=original	!	!	!	!	!	!LO:LB:g=original	!	!	!	!	!	!LO:LB:g=original	!	!LO:LB:g=original	!
=11||	=11||	=11||	=11||	=11||	=11||	=11||	=11||	=11||	=11||	=11||	=11||	=11||	=11||	=11||	=11||	=11||	=11||	=11||	=11||	=11||	=11||	=11||	=11||	=11||	=11||	=11||	=11||	=11||	=11||	=11||	=11||	=11||	=11||
*M3/8	*	*	*M3/8	*	*M3/8	*	*M3/8	*	*M3/8	*	*	*M3/8	*	*	*M3/8	*	*	*M3/8	*	*	*M3/8	*	*M3/8	*M3/8	*	*M3/8	*	*M3/8	*	*M3/8	*	*M3/8	*
!	!	!	!	!	!	!	!	!	!LO:TX:a:B:t=allegretto:color=red	!	!LO:TX:a:B:t=allegretto	!	!	!LO:TX:a:B:t=allegretto	!	!	!	!	!	!LO:N:vis=00	!	!	!	!	!	!	!	!	!	!	!LO:TX:a:t=5	!	!
!	!	!	!LO:TX:a:B:t=Allegretto	!	!	!	!LO:TX:b:i:t=Dolce:color=red	!	!LO:TX:a:t=5	!	!	!LO:TX:a:t=5	!	!	!LO:TX:a:t=5	!	!	!LO:TX:b:i:t=Dolce:color=red:color=red	!	!LO:TX:a:t=allegreto	!	!	!LO:N:vis=00	!	!	!	!	!	!LO:TX:a:t=5	!	!LO:TX:a:B:t=Allegretto	!	!
!	!	!	!LO:TX:a:t=1	!	!	!	!LO:TX:a:B:t=Allegretto.	!	!LO:N:vis=00	!	!	!LO:N:vis=00	!	!	!LO:N:vis=00	!	!	!LO:TX:a:B:t=allegretto	!	!	!LO:TX:a:t=5	!	!	!LO:TX:a:t=5	!	!LO:TX:a:B:t=allegretto	!	!LO:TX:a:t=1	!	!LO:N:vis=00	!	!LO:N:vis=0	!
8cc|\L	.	.	4.r	.	4.r	.	8cc'\L	.	1.r	.	.	1.r	.	.	1.r	.	.	8cc\L	PLe-	.	1.r	.	4.ryy	1.r	.	4.r	.	4.r	.	1.r	.	1.r	.
8g|\	.	.	.	.	.	.	8g'\	.	.	.	.	.	.	.	.	.	.	8g\	.	.	.	.	.	.	.	.	.	.	.	.	.	.	.
8ee|\J	.	.	.	.	.	.	8ee'\J	.	.	.	.	.	.	.	.	.	.	8ee\J	.	.	.	.	.	.	.	.	.	.	.	.	.	.	.
=12	=12	=12	=12	=12	=12	=12	=12	=12	=12	=12	=12	=12	=12	=12	=12	=12	=12	=12	=12	=12	=12	=12	=12	=12	=12	=12	=12	=12	=12	=12	=12	=12	=12
!	!	!	!	!	!LO:TX:a:B:t=Allegretto.	!	!	!LO:DY:b:t=pia:color=red	!	!	!	!	!	!	!	!	!	!	!	!	!	!	!	!	!	!	!	!LO:TX:a:B:t=allegretto	!	!	!	!	!
4cc\	.	.	8r	.	8r	.	4cc\	p	.	.	.	.	.	.	.	.	.	4cc\	-ni	.	.	.	4.ryy	.	.	8r	.	8r	.	.	.	.	.
.	.	.	8r	.	8r	.	.	.	.	.	.	.	.	.	.	.	.	.	.	.	.	.	.	.	.	8r	.	8r	.	.	.	.	.
!	!	!	!LO:TX:b:i:t=Dolce:color=red	!	!LO:TX:a:i:t=Dolce:color=red	!LO:DY:color=red	!	!	!	!	!	!	!	!	!	!	!	!	!	!	!	!	!	!	!	!	!LO:DY:b:t=piano:color=red	!	!LO:DY:b:t=piano:color=red	!	!	!	!
8r	.	.	8c\	.	16G/LL 16e	p	(16gg\LL	.	.	.	.	.	.	.	.	.	.	16gg\LL	Sunt	.	.	.	.	.	.	8e/	p	8cc\	p	.	.	.	.
.	.	.	.	.	16g/JJ	.	16ee\JJ)	.	.	.	.	.	.	.	.	.	.	16ee\JJ	.	.	.	.	.	.	.	.	.	.	.	.	.	.	.
*clefF4	*	*	*	*	*	*	*	*	*	*	*	*	*	*	*	*	*	*	*	*	*	*	*	*	*	*	*	*	*	*	*	*	*
=13	=13	=13	=13	=13	=13	=13	=13	=13	=13	=13	=13	=13	=13	=13	=13	=13	=13	=13	=13	=13	=13	=13	=13	=13	=13	=13	=13	=13	=13	=13	=13	=13	=13
!LO:TX:b:t=pedale	!	!	!	!	!	!	!	!	!	!	!	!	!	!	!	!	!	!	!	!	!	!	!	!	!	!	!	!	!	!	!	!	!
.	.	.	.	.	.	.	16qqee/	.	.	.	.	.	.	.	.	.	.	16qqee/	.	.	.	.	.	.	.	.	.	.	.	.	.	.	.
!	!	!LO:DY:b:t=pia:color=red	!	!	!	!	!	!	!	!	!	!	!	!	!	!	!	!	!	!	!	!	!	!	!	!	!	!	!	!	!	!	!
(4.GG/	.	p	8f\L	.	(16f/LL	.	8dd\L	.	.	.	.	.	.	.	.	.	.	8dd\	Cae-	.	.	.	4.ryy	.	.	4.g/	.	4.dd\	.	.	.	.	.
.	.	.	.	.	16g/)	.	.	.	.	.	.	.	.	.	.	.	.	.	.	.	.	.	.	.	.	.	.	.	.	.	.	.	.
.	.	.	8d\	.	(16f/	.	(16dd\L	.	.	.	.	.	.	.	.	.	.	16dd\LL	-li	.	.	.	.	.	.	.	.	.	.	.	.	.	.
.	.	.	.	.	16g/)	.	16ff\	.	.	.	.	.	.	.	.	.	.	16ff\JJ	.	.	.	.	.	.	.	.	.	.	.	.	.	.	.
.	.	.	8g\J	.	(16f/	.	16dd\	.	.	.	.	.	.	.	.	.	.	16dd\LL	A	.	.	.	.	.	.	.	.	.	.	.	.	.	.
.	.	.	.	.	16g/JJ)	.	16b\JJ)	.	.	.	.	.	.	.	.	.	.	16b\JJ	.	.	.	.	.	.	.	.	.	.	.	.	.	.	.
=14	=14	=14	=14	=14	=14	=14	=14	=14	=14	=14	=14	=14	=14	=14	=14	=14	=14	=14	=14	=14	=14	=14	=14	=14	=14	=14	=14	=14	=14	=14	=14	=14	=14
8C|/)	.	.	8c\	.	(16G/LL 16e	.	8cc\L	.	.	.	.	.	.	.	.	.	.	8cc\	Ter-	.	.	.	4.ryy	.	.	4.e/	.	4.cc\	.	.	.	.	.
.	.	.	.	.	16g/)	.	.	.	.	.	.	.	.	.	.	.	.	.	.	.	.	.	.	.	.	.	.	.	.	.	.	.	.
8r	.	.	8r	.	(16e/	.	8g\J	.	.	.	.	.	.	.	.	.	.	8g\	-ra	.	.	.	.	.	.	.	.	.	.	.	.	.	.
.	.	.	.	.	16g/)	.	.	.	.	.	.	.	.	.	.	.	.	.	.	.	.	.	.	.	.	.	.	.	.	.	.	.	.
8r	.	.	8e\	.	(16G/ 16e	.	(16gg\LL	.	.	.	.	.	.	.	.	.	.	16gg\LL	Sunt	.	.	.	.	.	.	.	.	.	.	.	.	.	.
.	.	.	.	.	16g/JJ)	.	16ee\JJ)	.	.	.	.	.	.	.	.	.	.	16ee\JJ	.	.	.	.	.	.	.	.	.	.	.	.	.	.	.
=15	=15	=15	=15	=15	=15	=15	=15	=15	=15	=15	=15	=15	=15	=15	=15	=15	=15	=15	=15	=15	=15	=15	=15	=15	=15	=15	=15	=15	=15	=15	=15	=15	=15
.	.	.	.	.	.	.	.	.	.	.	.	.	.	.	.	.	.	16qqee/	.	.	.	.	.	.	.	.	.	.	.	.	.	.	.
!	!	!	!	!	!	!	!	!	!LO:N:vis=1	!	!	!LO:N:vis=1	!	!	!LO:N:vis=1	!	!	!	!	!	!LO:N:vis=1	!	!	!LO:N:vis=1	!	!	!	!	!	!LO:N:vis=1	!	!LO:N:vis=1	!
(4.GG/	.	.	8f\L	.	(16f/LL	.	8dd\L	.	4.r	.	.	4.r	.	.	4.r	.	.	8dd\L	Cae-	.	4.r	.	4.ryy	4.r	.	4.g/	.	4.dd\	.	4.r	.	4.r	.
.	.	.	.	.	16g/)	.	.	.	.	.	.	.	.	.	.	.	.	.	.	.	.	.	.	.	.	.	.	.	.	.	.	.	.
.	.	.	8d\	.	(16f/	.	(16dd\L	.	.	.	.	.	.	.	.	.	.	16dd\L	.	.	.	.	.	.	.	.	.	.	.	.	.	.	.
!	!	!	!	!	!LO:SIC:s=16g/	!	!	!	!	!	!	!	!	!	!	!	!	!	!	!	!	!	!	!	!	!	!	!	!	!	!	!	!
.	.	.	.	.	16a/)	.	16ff\	.	.	.	.	.	.	.	.	.	.	16ff\	.	.	.	.	.	.	.	.	.	.	.	.	.	.	.
.	.	.	8g\J	.	(16f/	.	16dd\	.	.	.	.	.	.	.	.	.	.	16dd\	.	.	.	.	.	.	.	.	.	.	.	.	.	.	.
.	.	.	.	.	16g/JJ)	.	16b\JJ)	.	.	.	.	.	.	.	.	.	.	16b\JJ	.	.	.	.	.	.	.	.	.	.	.	.	.	.	.
!	!	!	!	!	!	!	!LO:LB:g=original	!	!	!	!	!	!	!	!	!	!	!	!	!	!	!	!	!	!	!	!	!	!	!	!	!	!
=16	=16	=16	=16	=16	=16	=16	=16	=16	=16	=16	=16	=16	=16	=16	=16	=16	=16	=16	=16	=16	=16	=16	=16	=16	=16	=16	=16	=16	=16	=16	=16	=16	=16
!	!	!	!	!	!	!	!	!	!	!	!	!	!	!	!	!	!	!	!	!	!	!	!	!LO:TX:a:B:t=allegretto	!	!	!	!	!	!	!	!	!
8C/)	.	.	8c\	.	8G/ 8e	.	8cc\	.	8r	.	.	8r	.	.	8r	.	.	8cc\	-li	.	8r	.	4.ryy	8r	.	8e/	.	8cc\	.	4r	.	4r	.
!	!	!	!	!	!	!	!	!	!	!	!	!	!	!	!	!	!	!	!	!	!	!	!	!	!	!	!	!LO:LB:g=original	!	!	!	!	!
8r	.	.	8r	.	8r	.	8r	.	8r	.	.	8r	.	.	8r	.	.	8r	.	.	8r	.	.	8r	.	8r	.	8r	.	.	.	.	.
!	!	!	!	!	!	!	!	!	!	!	!	!	!	!	!	!	!	!	!	!	!	!	!	!	!	!LO:LB:g=original	!	!	!	!	!	!	!
!LO:TX:b:t=Organo	!	!LO:DY:b:t=forto:color=red	!	!LO:DY:b:t=forto:color=red	!	!LO:DY:b:t=fort:color=red	!	!LO:DY:b:t=fort:color=red	!	!	!LO:DY:b:t=for:color=red	!	!	!LO:DY:b:t=forto:color=red	!	!	!LO:DY:b:t=forto:color=red	!	!	!LO:DY:b:t=forto:color=red	!	!LO:DY:a:color=red	!	!	!LO:DY:color=red	!	!LO:DY:a:t=fort:color=red	!	!LO:DY:b:t=for:color=red	!	!LO:DY:b:t=forto:color=red	!	!LO:DY:b:t=for:color=red
16G|\LL	.	f	16g|\LL	f	16g'/LL	f	16g'/LL	f	16G\LL	et	f	16G/LL	Et	f	16g\LL	Et	f	16g/LL	et	f	8GG/	f	.	8g|/	f	8e|/	f	8g|/	f	16g|/LL	f	16g|/LL	f
16F|\JJ	.	.	16f|\JJ	.	16f'/JJ	.	16f'/JJ	.	16F\JJ	.	.	16F/JJ	.	.	16f\JJ	.	.	16f/JJ	.	.	.	.	.	.	.	.	.	.	.	16f|/JJ	.	16f|/JJ	.
=17	=17	=17	=17	=17	=17	=17	=17	=17	=17	=17	=17	=17	=17	=17	=17	=17	=17	=17	=17	=17	=17	=17	=17	=17	=17	=17	=17	=17	=17	=17	=17	=17	=17
16E|\LL	.	.	16e|\LL	.	16e'/LL	.	16e'/LL	.	16E\LL	ter-	.	16E/LL	ter-	.	16e\LL	ter-	.	16e/LL	ter-	.	8r	.	4.ryy	8e|/L	.	8e|/L	.	8e|/L	.	(16e|/LL	.	(16e|/LL	.
16D|\	.	.	16d|\	.	16d'/	.	16d'/	.	16D\	.	.	16D/	.	.	16d\	.	.	16d/	.	.	.	.	.	.	.	.	.	.	.	16d|/	.	16d|/	.
16C|\	.	.	16c|\	.	16c'/	.	16c'/	.	16C\	.	.	16C/	.	.	16c\	.	.	16c/	.	.	8r	.	.	8c|/	.	8c|/	.	8c|/	.	16c|/	.	16c|/	.
16D|\JJ	.	.	16d|\	.	16d'/	.	16d'/	.	16D\	.	.	16D/	.	.	16d\	.	.	16d/	.	.	.	.	.	.	.	.	.	.	.	16d|/	.	16d|/	.
!LO:LB:g=original	!	!	!	!	!	!	!	!	!	!	!	!	!	!	!	!	!	!	!	!	!	!	!	!	!	!	!	!	!	!	!	!	!
16E|\LL	.	.	16e|\	.	16e'/	.	16e'/	.	16E\	.	.	16E/	.	.	16e\	.	.	16e/	.	.	8C/	.	.	8e|/J	.	8e|/J	.	8e|/J	.	16e|/	.	16e|/	.
16F|\JJ	.	.	16f|\JJ	.	16f'/JJ	.	16f'/JJ	.	16F\JJ	.	.	16F/JJ	.	.	16f\JJ	.	.	16f/JJ	.	.	.	.	.	.	.	.	.	.	.	16f|/JJ)	.	16f|/JJ)	.
!	!	!	!	!	!	!	!	!	!	!	!	!	!	!	!	!	!	!LO:LB:g=original	!	!	!	!	!	!	!	!	!	!	!	!	!	!	!
=18	=18	=18	=18	=18	=18	=18	=18	=18	=18	=18	=18	=18	=18	=18	=18	=18	=18	=18	=18	=18	=18	=18	=18	=18	=18	=18	=18	=18	=18	=18	=18	=18	=18
4G\	.	.	4g\	.	4g/	.	4g/	.	4G\	-ra	.	4G/	-ra	.	4g\	-ra	.	4g\	-ra	.	4GG/	.	4.ryy	4g|/	.	4g/	.	4g/	.	4g/	.	4g/	.
8r	.	.	8r	.	8r	.	8r	.	8r	.	.	8r	.	.	8r	.	.	8r	.	.	8r	.	.	8r	.	8r	.	8r	.	8r	.	8r	.
!	!	!	!	!	!	!	!	!	!	!	!	!	!	!	!	!	!	!LO:LB:g=original	!	!	!	!	!	!	!	!	!	!	!	!	!	!	!
=19	=19	=19	=19	=19	=19	=19	=19	=19	=19	=19	=19	=19	=19	=19	=19	=19	=19	=19	=19	=19	=19	=19	=19	=19	=19	=19	=19	=19	=19	=19	=19	=19	=19
!LO:TX:a:t=1	!	!	!	!LO:DY:b:t=fort:color=red	!LO:TX:a:t=1	!	!LO:TX:a:t=1	!	!	!	!	!	!	!	!	!	!	!	!	!	!LO:TX:a:t=5	!	!	!	!	!LO:TX:a:t=2	!	!	!	!LO:TX:a:t=1	!	!LO:TX:a:t=1	!
!	!	!	!	!	!	!	!	!	!	!	!	!	!	!	!	!	!	!	!	!	!LO:N:vis=00	!	!	!	!	!LO:N:vis=0	!	!	!	!	!	!	!
4.r	.	.	|8dd|\L	f	4.r	.	4.r	.	8d\	Ple-	.	8d\	Ple-	.	8dd\	Ple-	.	8dd\	Ple-	.	1.r	.	4.ryy	4.r	.	2.r	.	8dd|\L	.	4.r	.	4.r	.
.	.	.	8dd|\	.	.	.	.	.	8d\	-ni	.	8d\	-ni	.	8dd\	-ni	.	8dd\	-ni	.	.	.	.	.	.	.	.	8dd|\	.	.	.	.	.
.	.	.	8dd|\J	.	.	.	.	.	8d\	Sunt	.	8d\	Sunt	.	8dd\	Sunt	.	8dd\	Sunt	.	.	.	.	.	.	.	.	8dd|\J	.	.	.	.	.
=20	=20	=20	=20	=20	=20	=20	=20	=20	=20	=20	=20	=20	=20	=20	=20	=20	=20	=20	=20	=20	=20	=20	=20	=20	=20	=20	=20	=20	=20	=20	=20	=20	=20
16r	.	.	(16f#X\LL	.	32aa\LLL	.	32ccc\LLL	.	4.F#X\	Cae-	.	4.d\	Cae-	.	4.a\	Cae-	.	4.dd\	Cae-	.	.	.	4.ryy	4dd\	.	.	.	4.dd\	.	4.a/	.	4.ff#X\	.
.	.	.	.	.	32aa\	.	32ccc\	.	.	.	.	.	.	.	.	.	.	.	.	.	.	.	.	.	.	.	.	.	.	.	.	.	.
16D\LL	5 #	.	16d\)	.	32aa\	.	32ccc\	.	.	.	.	.	.	.	.	.	.	.	.	.	.	.	.	.	.	.	.	.	.	.	.	.	.
.	.	.	.	.	32aa\JJJ	.	32ccc\JJJ	.	.	.	.	.	.	.	.	.	.	.	.	.	.	.	.	.	.	.	.	.	.	.	.	.	.
*	*	*	*	*	*tremolo	*	*	*	*	*	*	*	*	*	*	*	*	*	*	*	*	*	*	*	*	*	*	*	*	*	*	*	*
*	*	*	*	*	*	*	*tremolo	*	*	*	*	*	*	*	*	*	*	*	*	*	*	*	*	*	*	*	*	*	*	*	*	*	*
16F#X\	.	.	(16f#\	.	32ff#X\LLL	.	32aa\LLL	.	.	.	.	.	.	.	.	.	.	.	.	.	.	.	.	.	.	.	.	.	.	.	.	.	.
.	.	.	.	.	32ff#X\	.	32aa\	.	.	.	.	.	.	.	.	.	.	.	.	.	.	.	.	.	.	.	.	.	.	.	.	.	.
16A\	.	.	16d\)	.	32ff#X\	.	32aa\	.	.	.	.	.	.	.	.	.	.	.	.	.	.	.	.	.	.	.	.	.	.	.	.	.	.
.	.	.	.	.	32ff#X\JJJ	.	32aa\JJJ	.	.	.	.	.	.	.	.	.	.	.	.	.	.	.	.	.	.	.	.	.	.	.	.	.	.
16F#\	.	.	(16f#\	.	32dd\LLL	.	32ff#X\LLL	.	.	.	.	.	.	.	.	.	.	.	.	.	.	.	.	8r	.	.	.	.	.	.	.	.	.
.	.	.	.	.	32dd\	.	32ff#X\	.	.	.	.	.	.	.	.	.	.	.	.	.	.	.	.	.	.	.	.	.	.	.	.	.	.
16D\JJ	.	.	16a\JJ)	.	32dd\	.	32ff#X\	.	.	.	.	.	.	.	.	.	.	.	.	.	.	.	.	.	.	.	.	.	.	.	.	.	.
.	.	.	.	.	32dd\JJJ	.	32ff#X\JJJ	.	.	.	.	.	.	.	.	.	.	.	.	.	.	.	.	.	.	.	.	.	.	.	.	.	.
!	!	!	!LO:LB:g=original	!	!LO:LB:g=original	!	!	!	!	!	!	!	!	!	!	!	!	!	!	!	!	!	!	!	!	!	!	!	!	!	!	!	!
=21	=21	=21	=21	=21	=21	=21	=21	=21	=21	=21	=21	=21	=21	=21	=21	=21	=21	=21	=21	=21	=21	=21	=21	=21	=21	=21	=21	=21	=21	=21	=21	=21	=21
*	*	*	*	*	*Xtremolo	*	*	*	*	*	*	*	*	*	*	*	*	*	*	*	*	*	*	*	*	*	*	*	*	*	*	*	*
16r	.	.	(16g\LL	.	32gg\LLL	.	32bb\LLL	.	4G\	-li	.	4d\	-li	.	4b\	-li	.	4dd\	-li	.	.	.	4.ryy	4dd\	.	4.g/	.	4.dd\	.	4.b/	.	4.gg\	.
.	.	.	.	.	32gg\	.	32bb\	.	.	.	.	.	.	.	.	.	.	.	.	.	.	.	.	.	.	.	.	.	.	.	.	.	.
16G\LL	3	.	16d\)	.	32gg\	.	32bb\	.	.	.	.	.	.	.	.	.	.	.	.	.	.	.	.	.	.	.	.	.	.	.	.	.	.
.	.	.	.	.	32gg\JJJ	.	32bb\JJJ	.	.	.	.	.	.	.	.	.	.	.	.	.	.	.	.	.	.	.	.	.	.	.	.	.	.
*	*	*	*	*	*tremolo	*	*	*	*	*	*	*	*	*	*	*	*	*	*	*	*	*	*	*	*	*	*	*	*	*	*	*	*
16B\	.	.	(16g\	.	32dd\LLL	.	32gg\LLL	.	.	.	.	.	.	.	.	.	.	.	.	.	.	.	.	.	.	.	.	.	.	.	.	.	.
.	.	.	.	.	32dd\	.	32gg\	.	.	.	.	.	.	.	.	.	.	.	.	.	.	.	.	.	.	.	.	.	.	.	.	.	.
16d\	.	.	16d\)	.	32dd\	.	32gg\	.	.	.	.	.	.	.	.	.	.	.	.	.	.	.	.	.	.	.	.	.	.	.	.	.	.
.	.	.	.	.	32dd\JJJ	.	32gg\JJJ	.	.	.	.	.	.	.	.	.	.	.	.	.	.	.	.	.	.	.	.	.	.	.	.	.	.
16B\	.	.	(16g\	.	32b\LLL	.	32dd\LLL	.	8G\	et	.	8d\	et	.	8b\	et	.	8dd\	et	.	.	.	.	8r	.	.	.	.	.	.	.	.	.
.	.	.	.	.	32b\	.	32dd\	.	.	.	.	.	.	.	.	.	.	.	.	.	.	.	.	.	.	.	.	.	.	.	.	.	.
16G\JJ	.	.	16d\JJ)	.	32b\	.	32dd\	.	.	.	.	.	.	.	.	.	.	.	.	.	.	.	.	.	.	.	.	.	.	.	.	.	.
.	.	.	.	.	32b\JJJ	.	32dd\JJJ	.	.	.	.	.	.	.	.	.	.	.	.	.	.	.	.	.	.	.	.	.	.	.	.	.	.
=22	=22	=22	=22	=22	=22	=22	=22	=22	=22	=22	=22	=22	=22	=22	=22	=22	=22	=22	=22	=22	=22	=22	=22	=22	=22	=22	=22	=22	=22	=22	=22	=22	=22
16r	.	.	(16f#X\LL	.	32aa\LLL	.	32ccc\LLL	.	4.F#X\	ter-	.	4.d\	ter-	.	4.a\	ter-	.	4.dd\	ter-	.	.	.	4.ryy	4dd\	.	4.dd\	.	4.dd\	.	4.a/	.	4.ff#X\	.
.	.	.	.	.	32aa\	.	32ccc\	.	.	.	.	.	.	.	.	.	.	.	.	.	.	.	.	.	.	.	.	.	.	.	.	.	.
16D\LL	5 #	.	16d\)	.	32aa\	.	32ccc\	.	.	.	.	.	.	.	.	.	.	.	.	.	.	.	.	.	.	.	.	.	.	.	.	.	.
.	.	.	.	.	32aa\JJJ	.	32ccc\JJJ	.	.	.	.	.	.	.	.	.	.	.	.	.	.	.	.	.	.	.	.	.	.	.	.	.	.
16F#X\	.	.	(16f#\	.	32ff#X\LLL	.	32aa\LLL	.	.	.	.	.	.	.	.	.	.	.	.	.	.	.	.	.	.	.	.	.	.	.	.	.	.
.	.	.	.	.	32ff#X\	.	32aa\	.	.	.	.	.	.	.	.	.	.	.	.	.	.	.	.	.	.	.	.	.	.	.	.	.	.
16A\	.	.	16d\)	.	32ff#X\	.	32aa\	.	.	.	.	.	.	.	.	.	.	.	.	.	.	.	.	.	.	.	.	.	.	.	.	.	.
.	.	.	.	.	32ff#X\JJJ	.	32aa\JJJ	.	.	.	.	.	.	.	.	.	.	.	.	.	.	.	.	.	.	.	.	.	.	.	.	.	.
16F#\	.	.	(16f#\	.	32dd\LLL	.	32ff#X\LLL	.	.	.	.	.	.	.	.	.	.	.	.	.	.	.	.	8r	.	.	.	.	.	.	.	.	.
.	.	.	.	.	32dd\	.	32ff#X\	.	.	.	.	.	.	.	.	.	.	.	.	.	.	.	.	.	.	.	.	.	.	.	.	.	.
16D\JJ	.	.	16d\JJ)	.	32dd\	.	32ff#X\	.	.	.	.	.	.	.	.	.	.	.	.	.	.	.	.	.	.	.	.	.	.	.	.	.	.
.	.	.	.	.	32dd\JJJ	.	32ff#X\JJJ	.	.	.	.	.	.	.	.	.	.	.	.	.	.	.	.	.	.	.	.	.	.	.	.	.	.
=23	=23	=23	=23	=23	=23	=23	=23	=23	=23	=23	=23	=23	=23	=23	=23	=23	=23	=23	=23	=23	=23	=23	=23	=23	=23	=23	=23	=23	=23	=23	=23	=23	=23
!	!	!	!	!	!	!	!	!	!	!	!	!	!	!	!	!	!	!	!	!	!LO:N:vis=1	!	!	!	!	!	!	!	!	!	!	!	!
16r	.	.	(16g\LL	.	32gg\LLL	.	32bb\LLL	.	4.G\	-ra	.	4.d\	-ra	.	4.b\	-ra	.	4.dd\	-ra	.	4.r	.	4.ryy	4dd\	.	4g/	.	4dd\	.	4b/	.	4gg\	.
.	.	.	.	.	32gg\	.	32bb\	.	.	.	.	.	.	.	.	.	.	.	.	.	.	.	.	.	.	.	.	.	.	.	.	.	.
16GG/LL	.	.	16d\)	.	32gg\	.	32bb\	.	.	.	.	.	.	.	.	.	.	.	.	.	.	.	.	.	.	.	.	.	.	.	.	.	.
.	.	.	.	.	32gg\JJJ	.	32bb\JJJ	.	.	.	.	.	.	.	.	.	.	.	.	.	.	.	.	.	.	.	.	.	.	.	.	.	.
16BB/	.	.	(16g\	.	32dd\LLL	.	32gg\LLL	.	.	.	.	.	.	.	.	.	.	.	.	.	.	.	.	.	.	.	.	.	.	.	.	.	.
.	.	.	.	.	32dd\	.	32gg\	.	.	.	.	.	.	.	.	.	.	.	.	.	.	.	.	.	.	.	.	.	.	.	.	.	.
16D/	.	.	16d\)	.	32dd\	.	32gg\	.	.	.	.	.	.	.	.	.	.	.	.	.	.	.	.	.	.	.	.	.	.	.	.	.	.
.	.	.	.	.	32dd\JJJ	.	32gg\JJJ	.	.	.	.	.	.	.	.	.	.	.	.	.	.	.	.	.	.	.	.	.	.	.	.	.	.
16BB/	.	.	(16g\	.	32b\LLL	.	32dd\LLL	.	.	.	.	.	.	.	.	.	.	.	.	.	.	.	.	8r	.	8r	.	8r	.	8r	.	8r	.
.	.	.	.	.	32b\	.	32dd\	.	.	.	.	.	.	.	.	.	.	.	.	.	.	.	.	.	.	.	.	.	.	.	.	.	.
16GG/JJ	.	.	16d\JJ)	.	32b\	.	32dd\	.	.	.	.	.	.	.	.	.	.	.	.	.	.	.	.	.	.	.	.	.	.	.	.	.	.
.	.	.	.	.	32b\JJJ	.	32dd\JJJ	.	.	.	.	.	.	.	.	.	.	.	.	.	.	.	.	.	.	.	.	.	.	.	.	.	.
!	!	!	!	!	!	!	!	!	!	!	!	!	!	!	!	!	!	!	!	!	!LO:LB:g=original	!	!	!	!	!	!	!	!	!	!	!	!
=24	=24	=24	=24	=24	=24	=24	=24	=24	=24	=24	=24	=24	=24	=24	=24	=24	=24	=24	=24	=24	=24	=24	=24	=24	=24	=24	=24	=24	=24	=24	=24	=24	=24
*	*	*	*	*	*Xtremolo	*	*Xtremolo	*	*	*	*	*	*	*	*	*	*	*	*	*	*	*	*	*	*	*	*	*	*	*	*	*	*
16BB\LL	3	.	16G/KL 16d	.	16gg'\LL	.	16gg'\LL	.	4.B\	glo-	.	4.B\	glo-	.	4.g\	glo-	.	4.dd\	glo-	.	8GG/L	.	4.ryy	8dd\L	.	4.g/	.	4.dd\	.	4.b\	.	4.dd\	.
16G\	.	.	8G/ 8d	.	16gg'\JJ	.	16gg'\JJ	.	.	.	.	.	.	.	.	.	.	.	.	.	.	.	.	.	.	.	.	.	.	.	.	.	.
16BB\	.	.	.	.	(32gg\LLL	.	(32gg\LLL	.	.	.	.	.	.	.	.	.	.	.	.	.	16GG/L	.	.	16dd\L	.	.	.	.	.	.	.	.	.
!	!	!	!	!	!LO:SIC:s=32ff#\	!	!	!	!	!	!	!	!	!	!	!	!	!	!	!	!	!	!	!	!	!	!	!	!	!	!	!	!
.	.	.	.	.	32ff\	.	32ff#X\	.	.	.	.	.	.	.	.	.	.	.	.	.	.	.	.	.	.	.	.	.	.	.	.	.	.
16G\	.	.	8G/ 8d	.	32ee\	.	32ee\	.	.	.	.	.	.	.	.	.	.	.	.	.	16GG/J	.	.	16dd\J	.	.	.	.	.	.	.	.	.
.	.	.	.	.	32dd\JJJ	.	32dd\JJJ	.	.	.	.	.	.	.	.	.	.	.	.	.	.	.	.	.	.	.	.	.	.	.	.	.	.
16BB\	.	.	.	.	32cc\LLL	.	32cc\LLL	.	.	.	.	.	.	.	.	.	.	.	.	.	8GG/J	.	.	8dd\J	.	.	.	.	.	.	.	.	.
.	.	.	.	.	32b\	.	32b\	.	.	.	.	.	.	.	.	.	.	.	.	.	.	.	.	.	.	.	.	.	.	.	.	.	.
16G\JJ	.	.	16G/Jk 16d	.	32a\	.	32a\	.	.	.	.	.	.	.	.	.	.	.	.	.	.	.	.	.	.	.	.	.	.	.	.	.	.
.	.	.	.	.	32g\JJJ)	.	32g\JJJ)	.	.	.	.	.	.	.	.	.	.	.	.	.	.	.	.	.	.	.	.	.	.	.	.	.	.
!	!	!	!	!	!	!	!LO:LB:g=original	!	!LO:LB:g=original	!	!	!	!	!	!LO:LB:g=original	!	!	!	!	!	!	!	!	!	!	!	!	!	!	!	!	!	!
=25	=25	=25	=25	=25	=25	=25	=25	=25	=25	=25	=25	=25	=25	=25	=25	=25	=25	=25	=25	=25	=25	=25	=25	=25	=25	=25	=25	=25	=25	=25	=25	=25	=25
16C\LL	3	.	16G/KL 16e	.	16ee'\LL	.	16ee'\LL	.	4c\	-ri-	.	4c\	-ri-	.	4g\	-ri-	.	4ee\	-ri-	.	8C/L	.	4.ryy	8ee\L	.	4.cc\	.	4.ee\	.	4.cc\	.	4.ee\	.
16G\	.	.	8G/ 8e	.	16ee'\JJ	.	16ee'\JJ	.	.	.	.	.	.	.	.	.	.	.	.	.	.	.	.	.	.	.	.	.	.	.	.	.	.
16C\	.	.	.	.	(32ee\LLL	.	(32ee\LLL	.	.	.	.	.	.	.	.	.	.	.	.	.	8C/J	.	.	8ee\J	.	.	.	.	.	.	.	.	.
.	.	.	.	.	32dd\	.	32dd\	.	.	.	.	.	.	.	.	.	.	.	.	.	.	.	.	.	.	.	.	.	.	.	.	.	.
16G\	.	.	8G/ 8e	.	32cc\	.	32cc\	.	.	.	.	.	.	.	.	.	.	.	.	.	.	.	.	.	.	.	.	.	.	.	.	.	.
.	.	.	.	.	32b\JJJ	.	32b\JJJ	.	.	.	.	.	.	.	.	.	.	.	.	.	.	.	.	.	.	.	.	.	.	.	.	.	.
16C\	.	.	.	.	32a\LLL	.	32a\LLL	.	8c\	-a	.	8c\	-a	.	8g\	-a	.	8ee\	-a	.	8r	.	.	8r	.	.	.	.	.	.	.	.	.
.	.	.	.	.	32g\	.	32g\	.	.	.	.	.	.	.	.	.	.	.	.	.	.	.	.	.	.	.	.	.	.	.	.	.	.
16G\JJ	.	.	16G/Jk 16e	.	32f#X\	.	32f#X\	.	.	.	.	.	.	.	.	.	.	.	.	.	.	.	.	.	.	.	.	.	.	.	.	.	.
.	.	.	.	.	32e\JJJ)	.	32e\JJJ)	.	.	.	.	.	.	.	.	.	.	.	.	.	.	.	.	.	.	.	.	.	.	.	.	.	.
!LO:LB:g=original	!	!	!	!	!	!	!	!	!	!	!	!LO:LB:g=original	!	!	!	!	!	!	!	!	!	!	!	!	!	!	!	!	!	!	!	!	!
=26	=26	=26	=26	=26	=26	=26	=26	=26	=26	=26	=26	=26	=26	=26	=26	=26	=26	=26	=26	=26	=26	=26	=26	=26	=26	=26	=26	=26	=26	=26	=26	=26	=26
!	!	!	!	!	!	!	!	!	!	!	!	!	!	!	!	!	!	!	!	!	!LO:TX:a:t=1	!	!	!	!	!	!	!	!	!	!	!	!
8r	.	.	16B\LL	.	8d/L	.	8d/L	.	4d\	tu-	.	4d\	tu-	.	4b\	tu-	.	8dd\L	tu-	.	4.r	.	4.ryy	8r	.	8r	.	8r	.	8b\L	.	8dd\L	.
.	.	.	16d\	.	.	.	.	.	.	.	.	.	.	.	.	.	.	.	.	.	.	.	.	.	.	.	.	.	.	.	.	.	.
!LO:TX:t=P:problem:mixed beam	!	!	!	!	!	!	!	!	!	!	!	!	!	!	!	!	!	!	!	!	!	!	!	!	!	!	!	!	!LO:DY:b:t=pia:color=red	!	!	!	!
8D\L	4	.	16g\	.	8d/ 8b 8gg	.	8d/ 8b 8gg	.	.	.	.	.	.	.	.	.	.	8gg\J	.	.	.	.	.	8dd\L	.	8dd\L	.	8dd\L	p	8b\	.	8gg\	.
.	.	.	16d\	.	.	.	.	.	.	.	.	.	.	.	.	.	.	.	.	.	.	.	.	.	.	.	.	.	.	.	.	.	.
8DD/J	#	.	16f#X\	.	8d/J 8a 8ff#X	.	8d/J 8a 8ff#X	.	8D\	-a	.	8d\	-a	.	8a\	-a	.	8ff#X\	-a	.	.	.	.	8dd\J	.	8dd\J	.	8dd\J	.	8a\J	.	8ff#X\J	.
.	.	.	16d\JJ	.	.	.	.	.	.	.	.	.	.	.	.	.	.	.	.	.	.	.	.	.	.	.	.	.	.	.	.	.	.
=27	=27	=27	=27	=27	=27	=27	=27	=27	=27	=27	=27	=27	=27	=27	=27	=27	=27	=27	=27	=27	=27	=27	=27	=27	=27	=27	=27	=27	=27	=27	=27	=27	=27
!	!	!LO:DY:b:t=pia:color=red	!	!LO:DY:b:t=pia:color=red	!	!LO:DY:b:t=pia:color=red	!	!LO:DY:b:t=pia:color=red	!	!	!LO:DY:b:t=pia:color=red	!	!	!LO:DY:a:t=pia:color=red	!	!	!LO:DY:b:color=red	!	!	!LO:DY:b:t=pia:color=red	!	!LO:DY:b:t=pia:color=red	!	!	!LO:DY:b:t=piano:color=red	!	!LO:DY:b:t=pia:color=red	!	!	!	!LO:DY:b:t=pia:color=red	!	!LO:DY:b:t=pia:color=red
16BB\LL	3	p	16d\LL	p	16gg'\LL	p	16gg'\LL	p	(4B\	glo-	p	4.B\	glo-	p	4.g\	glo-	p	4.dd\	glo-	p	8GG/L	p	4.ryy	8dd\L	p	4.g/	p	4.dd\	.	4.b\	p	4.dd\	p
16G\	.	.	16g\	.	16gg'\JJ	.	16gg'\JJ	.	.	.	.	.	.	.	.	.	.	.	.	.	.	.	.	.	.	.	.	.	.	.	.	.	.
16BB\	.	.	16d\	.	(32gg\LLL	.	(32gg\LLL	.	.	.	.	.	.	.	.	.	.	.	.	.	16GG/L	.	.	16dd\L	.	.	.	.	.	.	.	.	.
!	!	!	!	!	!LO:SIC:s=32ff#\	!	!	!	!	!	!	!	!	!	!	!	!	!	!	!	!	!	!	!	!	!	!	!	!	!	!	!	!
.	.	.	.	.	32ff\	.	32ff#X\	.	.	.	.	.	.	.	.	.	.	.	.	.	.	.	.	.	.	.	.	.	.	.	.	.	.
16G\	.	.	16g\	.	32ee\	.	32ee\	.	.	.	.	.	.	.	.	.	.	.	.	.	16GG/J	.	.	16dd\J	.	.	.	.	.	.	.	.	.
.	.	.	.	.	32dd\JJJ	.	32dd\JJJ	.	.	.	.	.	.	.	.	.	.	.	.	.	.	.	.	.	.	.	.	.	.	.	.	.	.
16BB\	.	.	16d\	.	32cc\LLL	.	32cc\LLL	.	8G\)	.	.	.	.	.	.	.	.	.	.	.	8GG/J	.	.	8dd\J	.	.	.	.	.	.	.	.	.
.	.	.	.	.	32b\	.	32b\	.	.	.	.	.	.	.	.	.	.	.	.	.	.	.	.	.	.	.	.	.	.	.	.	.	.
16G\JJ	.	.	16g\JJ	.	32a\	.	32a\	.	.	.	.	.	.	.	.	.	.	.	.	.	.	.	.	.	.	.	.	.	.	.	.	.	.
.	.	.	.	.	32g\JJJ)	.	32g\JJJ)	.	.	.	.	.	.	.	.	.	.	.	.	.	.	.	.	.	.	.	.	.	.	.	.	.	.
!	!	!	!	!	!LO:LB:g=original	!	!	!	!	!	!	!	!	!	!	!	!	!	!	!	!	!	!	!	!	!	!	!	!	!	!	!	!
=28	=28	=28	=28	=28	=28	=28	=28	=28	=28	=28	=28	=28	=28	=28	=28	=28	=28	=28	=28	=28	=28	=28	=28	=28	=28	=28	=28	=28	=28	=28	=28	=28	=28
16C\LL	3	.	16e\LL	.	16ee'\LL	.	16ee'\LL	.	4c\	-ri-	.	4c\	-ri-	.	4g\	-ri-	.	4ee\	-ri-	.	4C/	.	4.ryy	4ee\	.	4.cc\	.	4.ee\	.	4.cc\	.	4.ee\	.
16G\	.	.	16g\	.	16ee'\JJ	.	16ee'\JJ	.	.	.	.	.	.	.	.	.	.	.	.	.	.	.	.	.	.	.	.	.	.	.	.	.	.
16C\	.	.	16e\	.	(32ee\LLL	.	(32ee\LLL	.	.	.	.	.	.	.	.	.	.	.	.	.	.	.	.	.	.	.	.	.	.	.	.	.	.
.	.	.	.	.	32dd\	.	32dd\	.	.	.	.	.	.	.	.	.	.	.	.	.	.	.	.	.	.	.	.	.	.	.	.	.	.
16G\	.	.	16g\	.	32cc\	.	32cc\	.	.	.	.	.	.	.	.	.	.	.	.	.	.	.	.	.	.	.	.	.	.	.	.	.	.
.	.	.	.	.	32b\JJJ	.	32b\JJJ	.	.	.	.	.	.	.	.	.	.	.	.	.	.	.	.	.	.	.	.	.	.	.	.	.	.
16C\	.	.	16e\	.	32a\LLL	.	32a\LLL	.	8c\	-a	.	8c\	-a	.	8g\	-a	.	8ee\	-a	.	8C/	.	.	8ee\	.	.	.	.	.	.	.	.	.
.	.	.	.	.	32g\	.	32g\	.	.	.	.	.	.	.	.	.	.	.	.	.	.	.	.	.	.	.	.	.	.	.	.	.	.
!	!	!	!	!	!LO:SIC:s=32f#\	!	!	!	!	!	!	!	!	!	!	!	!	!	!	!	!	!	!	!	!	!	!	!	!	!	!	!	!
16G\JJ	.	.	16g\JJ	.	32f\	.	32f#X\	.	.	.	.	.	.	.	.	.	.	.	.	.	.	.	.	.	.	.	.	.	.	.	.	.	.
.	.	.	.	.	32e\JJJ)	.	32e\JJJ)	.	.	.	.	.	.	.	.	.	.	.	.	.	.	.	.	.	.	.	.	.	.	.	.	.	.
!	!	!	!LO:LB:g=original	!	!	!	!	!	!	!	!	!	!	!	!	!	!	!	!	!	!	!	!	!	!	!	!	!	!	!	!	!	!
=29	=29	=29	=29	=29	=29	=29	=29	=29	=29	=29	=29	=29	=29	=29	=29	=29	=29	=29	=29	=29	=29	=29	=29	=29	=29	=29	=29	=29	=29	=29	=29	=29	=29
!	!	!	!	!LO:DY:b:t=forto:color=red	!	!LO:DY:b:t=forto:color=red	!	!LO:DY:b:t=fort:color=red	!	!	!LO:DY:b:t=for:color=red	!	!	!LO:DY:a:color=red	!	!	!LO:DY:b:t=for:color=red	!	!	!LO:DY:b:t=fort:color=red	!LO:TX:a:t=1	!	!	!	!	!	!	!	!	!	!LO:DY:color=red	!	!
8r	.	.	8b\L	f	8d/L	f	8d/L	f	4d\	tu-	f	4.d\	tu-	f	4b\	tu-	f	8dd\L	tu-	f	4.r	.	4.ryy	8r	.	8r	.	8r	.	8b|\L	f	8dd\L	.
!LO:TX:t=P:problem:mixed beam	!	!LO:DY:b:t=forto:color=red	!	!	!	!	!	!	!	!	!	!	!	!	!	!	!	!	!	!	!	!	!	!	!LO:DY:b:t=for:color=red	!	!LO:DY:color=red	!	!	!	!	!	!
8D\L	4	f	8g\	.	8d/ 8b 8gg	.	8d/ 8b 8gg	.	.	.	.	.	.	.	.	.	.	8gg\	.	.	.	.	.	8dd\L	f	8dd\L	f	8dd\L	.	(8b\	.	8gg\	.
!	!	!	!	!	!	!	!	!	!	!	!	!	!	!	!	!	!	!LO:SIC:s=8ff#\	!	!	!	!	!	!	!	!	!	!	!	!	!	!	!
8DD/J	#	.	8f#X\J	.	8d/J 8a 8ff#X	.	8d/J 8a 8ff#X	.	8D\	.	.	.	.	.	8a\	.	.	8ff\J	.	.	.	.	.	8dd\J	.	8dd\J	.	8dd\J	.	8a\J)	.	8ff#X\J	.
!	!	!	!	!	!	!	!	!	!	!	!	!	!	!	!	!	!	!	!	!	!	!	!	!	!	!	!	!	!	!	!	!LO:LB:g=original	!
=30	=30	=30	=30	=30	=30	=30	=30	=30	=30	=30	=30	=30	=30	=30	=30	=30	=30	=30	=30	=30	=30	=30	=30	=30	=30	=30	=30	=30	=30	=30	=30	=30	=30
!	!	!	!	!	!	!	!	!	!	!	!	!	!	!	!	!	!	!	!	!	!	!LO:DY:color=red	!	!	!	!	!	!	!	!	!	!	!
4GG/	.	.	4g\	.	4d/ 4b 4gg	.	4d/ 4b 4gg	.	4d\	-a	.	4d\	-a	.	4b\	-a	.	4gg\	-a	.	4GG/	f	4.ryy	4dd\	.	4g/	.	4dd\	.	4b\	.	4gg\	.
!	!	!	!	!	!	!	!	!	!	!	!	!	!	!	!	!	!	!	!	!	!	!	!	!	!	!LO:TX:a:t=NB	!	!LO:TX:b:t=NB	!	!	!	!	!
8r	.	.	8r	.	8r	.	8r	.	8r	.	.	8r	.	.	8r	.	.	8r	.	.	8r	.	.	8r	.	8r	.	8r	.	8r	.	8r	.
!	!	!	!	!	!	!	!	!	!	!	!	!	!	!	!	!	!	!	!	!	!	!	!	!LO:LB:g=original	!	!	!	!	!	!LO:LB:g=original	!	!	!
=31	=31	=31	=31	=31	=31	=31	=31	=31	=31	=31	=31	=31	=31	=31	=31	=31	=31	=31	=31	=31	=31	=31	=31	=31	=31	=31	=31	=31	=31	=31	=31	=31	=31
*	*	*	*^	*	*^	*	*^	*	*	*	*	*	*	*	*	*	*	*	*	*	*	*	*	*	*	*	*	*	*	*	*	*	*
*	*	*	*	*cue	*	*cue	*	*	*cue	*	*	*	*	*	*	*	*	*	*	*	*	*	*	*	*	*	*	*	*	*	*	*	*	*	*	*
!LO:N:vis=00	!	!	!LO:TX:b:t=Cornn	!	!	!LO:TX:b:t=1	!	!	!LO:TX:b:t=1	!	!	!LO:TX:a:t=17	!	!	!LO:TX:a:t=17	!	!	!LO:TX:a:t=8	!	!	!LO:TX:a:t=17	!	!	!LO:N:vis=00	!	!	!LO:N:vis=00	!	!LO:TX:a:i:t=Solo	!	!LO:TX:b:i:t=Solo	!	!LO:TX:b:i:t=Solo	!	!LO:TX:b:i:t=Solo	!
!LO:TX:a:t=8	!	!	!LO:TX:a:t=1	!	!	!LO:TX:a:t=oboi	!	!	!LO:TX:a:t=oboi	!	!	!LO:N:vis=00	!	!	!LO:N:vis=00	!	!	!LO:N:vis=00	!	!	!LO:N:vis=00	!	!	!LO:TX:a:t=8	!	!	!LO:TX:a:t=8	!	!LO:TX:a:i:t=Dolce:color=red	!	!	!	!	!	!	!
1.r	.	.	4.r	8G\L	.	8dd/L	4.r	.	8ffn/L	4.r	.	1.r	.	.	1.r	.	.	1.r	.	.	1.r	.	.	1.r	.	4.ryy	1.r	.	8G/L	.	8dd|\L	.	8b|\L	.	8ffn|\L	.
.	.	.	.	8G\	.	8dd/	.	.	8ff/	.	.	.	.	.	.	.	.	.	.	.	.	.	.	.	.	.	.	.	8G/	.	8dd|\	.	8b|\	.	8ff|\	.
!	!	!	!	!	!	!	!	!	!	!	!	!	!	!	!	!	!	!	!	!	!	!	!	!	!	!	!	!	!	!	!LO:TX:b:i:t=Dolce:color=red	!	!	!	!LO:TX:b:i:t=Dolce:color=red	!
.	.	.	.	8G\J	.	8dd/J	.	.	8ff/J	.	.	.	.	.	.	.	.	.	.	.	.	.	.	.	.	.	.	.	8G/J	.	8dd|\J	.	8b|\J	.	8ff|\J	.
=32	=32	=32	=32	=32	=32	=32	=32	=32	=32	=32	=32	=32	=32	=32	=32	=32	=32	=32	=32	=32	=32	=32	=32	=32	=32	=32	=32	=32	=32	=32	=32	=32	=32	=32	=32	=32
!	!	!	!LO:TX:a:t=1	!	!	!LO:TX:b:t=2	!	!	!LO:TX:b:t=2	!	!	!	!	!	!	!	!	!	!	!	!	!	!	!	!	!	!	!	!	!	!	!	!LO:TX:b:i:t=Dolce:color=red	!	!	!
.	.	.	4.r	4G\	.	8dd/L	4.r	.	8ff/L	4.r	.	.	.	.	.	.	.	.	.	.	.	.	.	.	.	4.ryy	.	.	4G/	.	4dd\	.	8b/L	.	8ff\L	.
.	.	.	.	.	.	16g/L	.	.	(<16b/L	.	.	.	.	.	.	.	.	.	.	.	.	.	.	.	.	.	.	.	.	.	.	.	(16g/L	.	(16b\L	.
.	.	.	.	.	.	16a/	.	.	16cc/	.	.	.	.	.	.	.	.	.	.	.	.	.	.	.	.	.	.	.	.	.	.	.	16a/	.	16cc\	.
.	.	.	.	8r	.	16b/	.	.	16dd/	.	.	.	.	.	.	.	.	.	.	.	.	.	.	.	.	.	.	.	8r	.	8r	.	16b/	.	16dd\	.
.	.	.	.	.	.	16cc/JJ	.	.	16ee/JJ)	.	.	.	.	.	.	.	.	.	.	.	.	.	.	.	.	.	.	.	.	.	.	.	16cc/JJ)	.	16ee\JJ)	.
=33	=33	=33	=33	=33	=33	=33	=33	=33	=33	=33	=33	=33	=33	=33	=33	=33	=33	=33	=33	=33	=33	=33	=33	=33	=33	=33	=33	=33	=33	=33	=33	=33	=33	=33	=33	=33
!	!	!	!LO:TX:a:t=1	!	!	!LO:TX:b:t=3	!	!	!LO:TX:b:t=3	!	!	!	!	!	!	!	!	!	!	!	!	!	!	!	!	!	!	!	!	!	!	!	!	!	!	!
.	.	.	4.r	8G\L	.	8dd/L	4.r	.	8ff/L	4.r	.	.	.	.	.	.	.	.	.	.	.	.	.	.	.	4.ryy	.	.	8G/L	.	8dd|\L	.	8b|\L	.	8ff|\L	.
.	.	.	.	8G\	.	8dd/	.	.	8ff/	.	.	.	.	.	.	.	.	.	.	.	.	.	.	.	.	.	.	.	8G/	.	8dd|\	.	8b|\	.	8ff|\	.
.	.	.	.	8G\J	.	8dd/J	.	.	8ff/J	.	.	.	.	.	.	.	.	.	.	.	.	.	.	.	.	.	.	.	8G/J	.	8dd|\J	.	8b|\J	.	8ff|\J	.
=34	=34	=34	=34	=34	=34	=34	=34	=34	=34	=34	=34	=34	=34	=34	=34	=34	=34	=34	=34	=34	=34	=34	=34	=34	=34	=34	=34	=34	=34	=34	=34	=34	=34	=34	=34	=34
!	!	!	!LO:TX:a:t=1	!	!	!LO:TX:b:t=4	!	!	!LO:TX:b:t=4	!	!	!	!	!	!	!	!	!	!	!	!	!	!	!	!	!	!	!	!	!	!	!	!	!	!	!
.	.	.	4.r	4G\	.	8dd/L	4.r	.	8ff/L	4.r	.	.	.	.	.	.	.	.	.	.	.	.	.	.	.	4.ryy	.	.	4G/	.	4dd|\	.	8b/L	.	8ff\L	.
.	.	.	.	.	.	16g/L	.	.	16b/L	.	.	.	.	.	.	.	.	.	.	.	.	.	.	.	.	.	.	.	.	.	.	.	(16g/L	.	(16b\L	.
.	.	.	.	.	.	16a/	.	.	16cc/	.	.	.	.	.	.	.	.	.	.	.	.	.	.	.	.	.	.	.	.	.	.	.	16a/	.	16cc\	.
.	.	.	.	8r	.	16b/	.	.	16dd/	.	.	.	.	.	.	.	.	.	.	.	.	.	.	.	.	.	.	.	8r	.	8r	.	16b/	.	16dd\	.
.	.	.	.	.	.	16cc/JJ	.	.	16ee/JJ	.	.	.	.	.	.	.	.	.	.	.	.	.	.	.	.	.	.	.	.	.	.	.	16cc/JJ)	.	16ee\JJ)	.
!	!	!	!	!	!	!	!	!	!	!	!	!	!	!	!	!	!	!	!	!	!	!	!	!	!	!	!	!	!	!	!LO:LB:g=original	!	!	!	!	!
=35	=35	=35	=35	=35	=35	=35	=35	=35	=35	=35	=35	=35	=35	=35	=35	=35	=35	=35	=35	=35	=35	=35	=35	=35	=35	=35	=35	=35	=35	=35	=35	=35	=35	=35	=35	=35
!LO:N:vis=00	!	!	!LO:TX:a:t=1	!	!	!LO:TX:b:t=5	!	!	!LO:TX:b:t=5	!	!	!LO:N:vis=00	!	!	!LO:N:vis=00	!	!	!LO:N:vis=00	!	!	!LO:N:vis=00	!	!	!LO:N:vis=00	!	!	!LO:N:vis=00	!	!	!	!	!	!	!	!	!
1.r	.	.	4.r	4G\	.	4dd/	4.r	.	4ff/	4.r	.	1.r	.	.	1.r	.	.	1.r	.	.	1.r	.	.	1.r	.	4.ryy	1.r	.	4G/	.	4dd|\	.	4b|\	.	4ff|\	.
.	.	.	.	8r	.	8r	.	.	8r	.	.	.	.	.	.	.	.	.	.	.	.	.	.	.	.	.	.	.	8r	.	8r	.	8r	.	8r	.
=36	=36	=36	=36	=36	=36	=36	=36	=36	=36	=36	=36	=36	=36	=36	=36	=36	=36	=36	=36	=36	=36	=36	=36	=36	=36	=36	=36	=36	=36	=36	=36	=36	=36	=36	=36	=36
!	!	!	!LO:TX:a:t=1	!	!	!LO:TX:b:t=6	!	!	!LO:TX:b:t=6	!	!	!	!	!	!	!	!	!	!	!	!	!	!	!	!	!	!	!	!	!	!	!	!	!	!	!
.	.	.	4.r	4G\	.	4dd/	4.r	.	4ff/	4.r	.	.	.	.	.	.	.	.	.	.	.	.	.	.	.	4.ryy	.	.	4G/	.	4dd|\	.	4b|\	.	4ff|\	.
.	.	.	.	8r	.	8r	.	.	8r	.	.	.	.	.	.	.	.	.	.	.	.	.	.	.	.	.	.	.	8r	.	8r	.	8r	.	8r	.
=37	=37	=37	=37	=37	=37	=37	=37	=37	=37	=37	=37	=37	=37	=37	=37	=37	=37	=37	=37	=37	=37	=37	=37	=37	=37	=37	=37	=37	=37	=37	=37	=37	=37	=37	=37	=37
!	!	!	!LO:TX:a:t=1	!	!	!LO:TX:b:t=7	!	!	!LO:TX:b:t=7	!	!	!	!	!	!	!	!	!	!	!	!	!	!	!	!	!	!	!	!	!	!	!	!	!	!	!
.	.	.	4.r	4G\	.	4dd/	4.r	.	4ff/	4.r	.	.	.	.	.	.	.	.	.	.	.	.	.	.	.	4.ryy	.	.	4G/	.	4dd|\	.	4b|\	.	4ff|\	.
.	.	.	.	8r	.	8r	.	.	8r	.	.	.	.	.	.	.	.	.	.	.	.	.	.	.	.	.	.	.	8r	.	8r	.	8r	.	8r	.
*	*	*	*v	*v	*	*	*	*	*v	*v	*	*	*	*	*	*	*	*	*	*	*	*	*	*	*	*	*	*	*	*	*	*	*	*	*	*
*	*	*	*	*	*v	*v	*	*	*	*	*	*	*	*	*	*	*	*	*	*	*	*	*	*	*	*	*	*	*	*	*	*	*	*
!	!	!	!	!	!	!	!	!	!	!	!	!	!	!	!	!	!	!	!	!	!	!	!	!	!	!	!	!	!LO:LB:g=original	!	!	!	!
=38	=38	=38	=38	=38	=38	=38	=38	=38	=38	=38	=38	=38	=38	=38	=38	=38	=38	=38	=38	=38	=38	=38	=38	=38	=38	=38	=38	=38	=38	=38	=38	=38	=38
!	!	!	!LO:TX:a:t=1	!	!	!	!	!	!	!	!	!	!	!	!	!	!	!	!	!	!	!	!	!	!	!LO:TX:a:t=10	!	!LO:TX:a:t=10	!	!LO:TX:a:t=10	!	!LO:TX:a:t=10	!
!	!	!	!	!	!LO:TX:b:t=8	!	!LO:TX:b:t=8	!	!	!	!	!	!	!	!	!	!	!	!	!	!	!	!	!	!	!LO:N:vis=00	!	!LO:N:vis=00	!	!LO:N:vis=00	!	!LO:N:vis=00	!
.	.	.	4.r	.	4.r	.	4.r	.	.	.	.	.	.	.	.	.	.	.	.	.	.	.	4.ryy	.	.	1.r	.	1.r	.	1.r	.	1.r	.
=39	=39	=39	=39	=39	=39	=39	=39	=39	=39	=39	=39	=39	=39	=39	=39	=39	=39	=39	=39	=39	=39	=39	=39	=39	=39	=39	=39	=39	=39	=39	=39	=39	=39
*	*	*	*Xcue	*	*Xcue	*	*Xcue	*	*	*	*	*	*	*	*	*	*	*	*	*	*	*	*	*	*	*	*	*	*	*	*	*	*
!LO:TX:b:t=pedal	!	!	!	!LO:DY:a	!	!	!	!LO:DY:a	!	!	!	!	!	!	!LO:TX:a:i:t=Solo	!	!	!	!	!	!	!	!	!	!	!	!	!	!	!	!	!	!
!LO:TX:a:t=1	!	!LO:DY:a:t=pia:color=red	!LO:TX:a:t=1	!LO:DY:b:t=piano:color=red	!	!LO:DY:a:t=piano:color=red	!	!LO:DY:b:t=piano:color=red	!LO:N:vis=00	!	!	!LO:N:vis=00	!	!	!LO:TX:a:i:t=Dolce:color=red	!	!	!LO:N:vis=00	!	!	!LO:TX:a:t=1	!LO:DY:b:t=ppianiſsime:color=red	!	!	!LO:DY:b:t=piano:color=red	!	!	!	!	!	!	!	!
4.CC/ 4.C	.	p	4.C/ 4.G	p	4.G/ 4.e	p	(16cc\LL	p	1.r	.	.	1.r	.	.	16c\LL	Ple-	.	1.r	.	.	4.C/	pp	4.ryy	4g/	p	.	.	.	.	.	.	.	.
.	.	.	.	.	.	.	16b\	.	.	.	.	.	.	.	16B\JJ	.	.	.	.	.	.	.	.	.	.	.	.	.	.	.	.	.	.
.	.	.	.	.	.	.	16cc\	.	.	.	.	.	.	.	16c\LL	-ni	.	.	.	.	.	.	.	.	.	.	.	.	.	.	.	.	.
.	.	.	.	.	.	.	16dd\	.	.	.	.	.	.	.	16d\JJ	.	.	.	.	.	.	.	.	.	.	.	.	.	.	.	.	.	.
.	.	.	.	.	.	.	16ee\	.	.	.	.	.	.	.	16e\LL	Sunt	.	.	.	.	.	.	.	8r	.	.	.	.	.	.	.	.	.
.	.	.	.	.	.	.	16ff\JJ)	.	.	.	.	.	.	.	16f\JJ	.	.	.	.	.	.	.	.	.	.	.	.	.	.	.	.	.	.
=40	=40	=40	=40	=40	=40	=40	=40	=40	=40	=40	=40	=40	=40	=40	=40	=40	=40	=40	=40	=40	=40	=40	=40	=40	=40	=40	=40	=40	=40	=40	=40	=40	=40
!LO:TX:a:t=2	!	!	!LO:TX:a:t=2	!	!	!	!	!	!	!	!	!	!	!	!	!	!	!	!	!	!LO:TX:a:t=2	!	!	!LO:TX:a:t=1	!	!	!	!	!	!	!	!	!
4.CC/ 4.C	.	.	4.C/ 4.G	.	4.G/ 4.e	.	(16gg\LL	.	.	.	.	.	.	.	16g\LL	Cae-	.	.	.	.	4.C/	.	4.ryy	4.r	.	.	.	.	.	.	.	.	.
.	.	.	.	.	.	.	16aa\	.	.	.	.	.	.	.	16a\	.	.	.	.	.	.	.	.	.	.	.	.	.	.	.	.	.	.
.	.	.	.	.	.	.	16gg\	.	.	.	.	.	.	.	16g\	.	.	.	.	.	.	.	.	.	.	.	.	.	.	.	.	.	.
.	.	.	.	.	.	.	16ff\	.	.	.	.	.	.	.	16f\JJ	.	.	.	.	.	.	.	.	.	.	.	.	.	.	.	.	.	.
.	.	.	.	.	.	.	16ee\	.	.	.	.	.	.	.	16e\LL	-li	.	.	.	.	.	.	.	.	.	.	.	.	.	.	.	.	.
.	.	.	.	.	.	.	16ff\JJ)	.	.	.	.	.	.	.	16f\JJ	.	.	.	.	.	.	.	.	.	.	.	.	.	.	.	.	.	.
=41	=41	=41	=41	=41	=41	=41	=41	=41	=41	=41	=41	=41	=41	=41	=41	=41	=41	=41	=41	=41	=41	=41	=41	=41	=41	=41	=41	=41	=41	=41	=41	=41	=41
!LO:TX:a:t=3	!	!	!LO:TX:a:t=3	!	!	!	!	!	!	!	!	!	!	!	!	!	!	!	!	!	!LO:TX:a:t=3	!	!	!	!	!	!	!	!	!	!	!	!
4.CC/ 4.C	.	.	4.C/ 4.G	.	4.G/ 4.e	.	(16gg\LL	.	.	.	.	.	.	.	16g\LL	Cae-	.	.	.	.	4.C/	.	4.ryy	4g/	.	.	.	.	.	.	.	.	.
.	.	.	.	.	.	.	16ff\	.	.	.	.	.	.	.	16f\JJ	.	.	.	.	.	.	.	.	.	.	.	.	.	.	.	.	.	.
.	.	.	.	.	.	.	16ee\	.	.	.	.	.	.	.	16e\LL	-li	.	.	.	.	.	.	.	.	.	.	.	.	.	.	.	.	.
.	.	.	.	.	.	.	16dd\	.	.	.	.	.	.	.	16d\JJ	.	.	.	.	.	.	.	.	.	.	.	.	.	.	.	.	.	.
.	.	.	.	.	.	.	16cc\	.	.	.	.	.	.	.	16c\LL	et	.	.	.	.	.	.	.	8r	.	.	.	.	.	.	.	.	.
.	.	.	.	.	.	.	16b\JJ)	.	.	.	.	.	.	.	16B\JJ	.	.	.	.	.	.	.	.	.	.	.	.	.	.	.	.	.	.
=42	=42	=42	=42	=42	=42	=42	=42	=42	=42	=42	=42	=42	=42	=42	=42	=42	=42	=42	=42	=42	=42	=42	=42	=42	=42	=42	=42	=42	=42	=42	=42	=42	=42
!LO:TX:a:t=4	!	!	!LO:TX:a:t=4	!	!	!	!	!	!	!	!	!	!	!	!	!	!	!	!	!	!LO:TX:a:t=4	!	!	!LO:TX:a:t=1	!	!LO:N:vis=00	!	!LO:N:vis=00	!	!LO:N:vis=00	!	!LO:N:vis=00	!
4.CC/ 4.C	.	.	4.C/ 4.G	.	4.G/ 4.e	.	(16cc\LL	.	.	.	.	.	.	.	16c\LL	ter-	.	.	.	.	4.C/	.	4.ryy	4.r	.	1.r	.	1.r	.	1.r	.	1.r	.
.	.	.	.	.	.	.	16dd\	.	.	.	.	.	.	.	16d\	.	.	.	.	.	.	.	.	.	.	.	.	.	.	.	.	.	.
.	.	.	.	.	.	.	16ee\	.	.	.	.	.	.	.	16e\	.	.	.	.	.	.	.	.	.	.	.	.	.	.	.	.	.	.
.	.	.	.	.	.	.	16cc\J)	.	.	.	.	.	.	.	16c\JJ	.	.	.	.	.	.	.	.	.	.	.	.	.	.	.	.	.	.
!	!	!	!	!	!	!	!	!	!	!	!	!	!	!	!LO:SIC:s=8G/	!	!	!	!	!	!	!	!	!	!	!	!	!	!	!	!	!	!
!	!	!	!	!	!	!	!	!	!	!	!	!	!	!	!LO:LB:g=original	!	!	!	!	!	!	!	!	!	!	!	!	!	!	!	!	!	!
.	.	.	.	.	.	.	8g\J	.	.	.	.	.	.	.	8A/	-ra	.	.	.	.	.	.	.	.	.	.	.	.	.	.	.	.	.
=43	=43	=43	=43	=43	=43	=43	=43	=43	=43	=43	=43	=43	=43	=43	=43	=43	=43	=43	=43	=43	=43	=43	=43	=43	=43	=43	=43	=43	=43	=43	=43	=43	=43
!LO:TX:a:t=5	!	!	!LO:TX:a:t=5	!	!	!	!	!	!LO:N:vis=00	!	!	!LO:N:vis=00	!	!	!	!	!	!LO:N:vis=00	!	!	!LO:TX:a:t=5	!	!	!	!	!	!	!	!	!	!	!	!
4.CC/ 4.C	.	.	4.C/ 4.G	.	4.G/ 4.e	.	(16cc\LL	.	1.r	.	.	1.r	.	.	16c\LL	Ple-	.	1.r	.	.	4.C/	.	4.ryy	4g/	.	.	.	.	.	.	.	.	.
.	.	.	.	.	.	.	16b\	.	.	.	.	.	.	.	16B\JJ	.	.	.	.	.	.	.	.	.	.	.	.	.	.	.	.	.	.
.	.	.	.	.	.	.	16cc\	.	.	.	.	.	.	.	16c\LL	-ni	.	.	.	.	.	.	.	.	.	.	.	.	.	.	.	.	.
.	.	.	.	.	.	.	16dd\	.	.	.	.	.	.	.	16d\JJ	.	.	.	.	.	.	.	.	.	.	.	.	.	.	.	.	.	.
.	.	.	.	.	.	.	16ee\	.	.	.	.	.	.	.	16e\LL	Sunt	.	.	.	.	.	.	.	8r	.	.	.	.	.	.	.	.	.
.	.	.	.	.	.	.	16ff\JJ)	.	.	.	.	.	.	.	16f\JJ	.	.	.	.	.	.	.	.	.	.	.	.	.	.	.	.	.	.
=44	=44	=44	=44	=44	=44	=44	=44	=44	=44	=44	=44	=44	=44	=44	=44	=44	=44	=44	=44	=44	=44	=44	=44	=44	=44	=44	=44	=44	=44	=44	=44	=44	=44
!LO:TX:a:t=6	!	!	!LO:TX:a:t=6	!	!	!	!	!	!	!	!	!	!	!	!	!	!	!	!	!	!LO:TX:a:t=6	!	!	!LO:TX:a:t=1	!	!	!	!	!	!	!	!	!
4.CC/ 4.C	.	.	4.C/ 4.G	.	4.G/ 4.e	.	(16gg\LL	.	.	.	.	.	.	.	16g\LL	Cae-	.	.	.	.	4.C/	.	4.ryy	4.r	.	.	.	.	.	.	.	.	.
.	.	.	.	.	.	.	16aa\	.	.	.	.	.	.	.	16a\	.	.	.	.	.	.	.	.	.	.	.	.	.	.	.	.	.	.
.	.	.	.	.	.	.	16gg\	.	.	.	.	.	.	.	16g\	.	.	.	.	.	.	.	.	.	.	.	.	.	.	.	.	.	.
.	.	.	.	.	.	.	16ff\)	.	.	.	.	.	.	.	16f\JJ	.	.	.	.	.	.	.	.	.	.	.	.	.	.	.	.	.	.
.	.	.	.	.	.	.	16ee'\	.	.	.	.	.	.	.	16e\LL	-li	.	.	.	.	.	.	.	.	.	.	.	.	.	.	.	.	.
.	.	.	.	.	.	.	16ff'\JJ	.	.	.	.	.	.	.	16f\JJ	.	.	.	.	.	.	.	.	.	.	.	.	.	.	.	.	.	.
!	!	!	!	!	!LO:LB:g=original	!	!LO:LB:g=original	!	!	!	!	!	!	!	!	!	!	!	!	!	!	!	!	!	!	!	!	!	!	!	!	!	!
=45	=45	=45	=45	=45	=45	=45	=45	=45	=45	=45	=45	=45	=45	=45	=45	=45	=45	=45	=45	=45	=45	=45	=45	=45	=45	=45	=45	=45	=45	=45	=45	=45	=45
!LO:TX:a:t=7	!	!	!LO:TX:a:t=7	!	!	!	!	!	!	!	!	!	!	!	!	!	!	!	!	!	!LO:TX:a:t=7	!	!	!	!	!	!	!	!	!	!	!	!
4.CC/ 4.C	.	.	4.C/ 4.G	.	4.G/ 4.e	.	(16gg\LL	.	.	.	.	.	.	.	16g\LL	Cae-	.	.	.	.	4.C/	.	4.ryy	4g/	.	.	.	.	.	.	.	.	.
.	.	.	.	.	.	.	16aa\	.	.	.	.	.	.	.	16a\JJ	.	.	.	.	.	.	.	.	.	.	.	.	.	.	.	.	.	.
.	.	.	.	.	.	.	16gg\	.	.	.	.	.	.	.	16g\LL	-li	.	.	.	.	.	.	.	.	.	.	.	.	.	.	.	.	.
.	.	.	.	.	.	.	16ff\)	.	.	.	.	.	.	.	16f\JJ	.	.	.	.	.	.	.	.	.	.	.	.	.	.	.	.	.	.
.	.	.	.	.	.	.	16ee'\	.	.	.	.	.	.	.	16e\LL	et	.	.	.	.	.	.	.	8r	.	.	.	.	.	.	.	.	.
.	.	.	.	.	.	.	16ff'\JJ	.	.	.	.	.	.	.	16f\JJ	.	.	.	.	.	.	.	.	.	.	.	.	.	.	.	.	.	.
!LO:LB:g=original	!	!	!LO:LB:g=original	!	!	!	!	!	!	!	!	!	!	!	!	!	!	!	!	!	!	!	!	!	!	!	!	!	!	!	!	!	!
=46	=46	=46	=46	=46	=46	=46	=46	=46	=46	=46	=46	=46	=46	=46	=46	=46	=46	=46	=46	=46	=46	=46	=46	=46	=46	=46	=46	=46	=46	=46	=46	=46	=46
!LO:TX:a:t=8	!	!	!LO:TX:a:t=8	!	!	!	!	!	!	!	!	!	!	!	!	!	!	!	!	!	!LO:TX:a:t=8	!	!	!	!	!LO:N:vis=0	!	!LO:N:vis=0	!	!LO:N:vis=0	!	!LO:N:vis=0	!
4.CC/ 4.C	.	.	4.C/ 4.G	.	4.G/ 4.e	.	(16gg\LL	.	.	.	.	.	.	.	16g\LL	ter-	.	.	.	.	4.C/	.	4.ryy	4g/	.	2.r	.	2.r	.	2.r	.	2.r	.
.	.	.	.	.	.	.	16aa\	.	.	.	.	.	.	.	16a\	.	.	.	.	.	.	.	.	.	.	.	.	.	.	.	.	.	.
.	.	.	.	.	.	.	16gg\	.	.	.	.	.	.	.	16g\	.	.	.	.	.	.	.	.	.	.	.	.	.	.	.	.	.	.
.	.	.	.	.	.	.	16ff\)	.	.	.	.	.	.	.	16f\	.	.	.	.	.	.	.	.	.	.	.	.	.	.	.	.	.	.
.	.	.	.	.	.	.	16ee'\	.	.	.	.	.	.	.	16e\	.	.	.	.	.	.	.	.	8r	.	.	.	.	.	.	.	.	.
.	.	.	.	.	.	.	16ff'\JJ	.	.	.	.	.	.	.	16f\JJ	.	.	.	.	.	.	.	.	.	.	.	.	.	.	.	.	.	.
=47	=47	=47	=47	=47	=47	=47	=47	=47	=47	=47	=47	=47	=47	=47	=47	=47	=47	=47	=47	=47	=47	=47	=47	=47	=47	=47	=47	=47	=47	=47	=47	=47	=47
!	!	!	!LO:TX:a:t=9	!	!	!	!	!	!LO:N:vis=1	!	!	!LO:N:vis=1	!	!	!	!	!	!LO:N:vis=1	!	!	!LO:TX:a:t=9	!	!	!	!	!	!	!	!	!	!	!	!
4CC/ 4C	.	.	4C/ 4G	.	4G/ 4e	.	4gg\	.	4.r	.	.	4.r	.	.	4g\	-ra	.	4.r	.	.	4C/	.	4.ryy	4g/	.	.	.	.	.	.	.	.	.
8r	.	.	8r	.	8r	.	8r	.	.	.	.	.	.	.	8r	.	.	.	.	.	8r	.	.	8r	.	.	.	.	.	.	.	.	.
!	!	!	!	!	!	!	!	!	!	!	!	!	!	!	!	!	!	!	!	!	!LO:LB:g=original	!	!	!	!	!	!	!	!	!	!	!	!
=48	=48	=48	=48	=48	=48	=48	=48	=48	=48	=48	=48	=48	=48	=48	=48	=48	=48	=48	=48	=48	=48	=48	=48	=48	=48	=48	=48	=48	=48	=48	=48	=48	=48
!	!	!	!	!LO:DY:b:t=forto:color=red	!	!LO:DY:b:t=forto:color=red	!	!LO:DY:b:t=forto:color=red	!	!	!LO:DY:a:t=forto:color=red	!	!	!LO:DY:a:t=for:color=red	!	!	!LO:DY:b:t=forto:color=red	!	!	!LO:DY:b:t=fort:color=red	!	!	!	!	!LO:DY:b:t=for:color=red	!	!LO:DY:color=red	!	!LO:DY:color=red	!	!LO:DY:b:t=for:color=red	!	!LO:DY:b:t=fort:color=red
16r	.	.	32g\LLL	f	32ee\LLL	f	32bb-X\LLL	f	8.C/	glo-	f	8.B-X\	glo-	f	8.g\	glo-	f	8.ee\	glo-	f	16C/LL	.	4.ryy	16cc\LL	f	8c/L	f	8g/L	f	4.b-X\	f	4.ee\	f
.	.	.	32g\	.	32ee\	.	32bb-\	.	.	.	.	.	.	.	.	.	.	.	.	.	.	.	.	.	.	.	.	.	.	.	.	.	.
!	!	!LO:DY:b:t=forto:color=red	!	!	!	!	!	!	!	!	!	!	!	!	!	!	!	!	!	!	!	!	!	!	!	!	!	!	!	!	!	!	!
16C\LL	8 -5 3	f	32g\	.	32ee\	.	32bb-\	.	.	.	.	.	.	.	.	.	.	.	.	.	16C/J	.	.	16cc\J	.	.	.	.	.	.	.	.	.
.	.	.	32g\JJJ	.	32ee\JJJ	.	32bb-\JJJ	.	.	.	.	.	.	.	.	.	.	.	.	.	.	.	.	.	.	.	.	.	.	.	.	.	.
*	*	*	*tremolo	*	*tremolo	*	*tremolo	*	*	*	*	*	*	*	*	*	*	*	*	*	*	*	*	*	*	*	*	*	*	*	*	*	*
16E\	.	.	32c\LLL 32g	.	32ee\LLL	.	32bb-\LLL	.	.	.	.	.	.	.	.	.	.	.	.	.	8C/J	.	.	8cc\J	.	16c/L	.	16g/L	.	.	.	.	.
.	.	.	32c\ 32g	.	32ee\	.	32bb-\	.	.	.	.	.	.	.	.	.	.	.	.	.	.	.	.	.	.	.	.	.	.	.	.	.	.
16G\	.	.	32c\ 32g	.	32ee\	.	32bb-\	.	16C/	-ri-	.	16B-\	-ri-	.	16g\	-ri-	.	16ee\	-ri-	.	.	.	.	.	.	16c/J	.	16g/J	.	.	.	.	.
.	.	.	32c\JJJ 32g	.	32ee\JJJ	.	32bb-\JJJ	.	.	.	.	.	.	.	.	.	.	.	.	.	.	.	.	.	.	.	.	.	.	.	.	.	.
16E\	.	.	32c\LLL 32g	.	32ee\LLL	.	32bb-\LLL	.	8C/	-a	.	8B-\	-a	.	8g\	-a	.	8ee\	-a	.	8r	.	.	8r	.	8c/J	.	8g/J	.	.	.	.	.
.	.	.	32c\ 32g	.	32ee\	.	32bb-\	.	.	.	.	.	.	.	.	.	.	.	.	.	.	.	.	.	.	.	.	.	.	.	.	.	.
16C\JJ	.	.	32c\ 32g	.	32ee\	.	32bb-\	.	.	.	.	.	.	.	.	.	.	.	.	.	.	.	.	.	.	.	.	.	.	.	.	.	.
.	.	.	32c\JJJ 32g	.	32ee\JJJ	.	32bb-\JJJ	.	.	.	.	.	.	.	.	.	.	.	.	.	.	.	.	.	.	.	.	.	.	.	.	.	.
*	*	*	*Xtremolo	*	*	*	*	*	*	*	*	*	*	*	*	*	*	*	*	*	*	*	*	*	*	*	*	*	*	*	*	*	*
=49	=49	=49	=49	=49	=49	=49	=49	=49	=49	=49	=49	=49	=49	=49	=49	=49	=49	=49	=49	=49	=49	=49	=49	=49	=49	=49	=49	=49	=49	=49	=49	=49	=49
!	!	!	!	!	!	!	!	!	!	!	!	!LO:SIC:s=8c\	!	!	!	!	!	!	!	!	!LO:TX:a:t=1	!	!	!LO:TX:a:t=1	!	!LO:TX:a:t=1	!	!LO:TX:a:t=1	!	!	!	!	!
16F\LL	8 3	.	16cc\LL	.	32ff\LLL	.	32aa\LLL	.	8F\L	tu-	.	8B\L	tu-	.	8a\L	tu-	.	8ff\L	tu-	.	4.r	.	4.ryy	4.r	.	4.r	.	4.r	.	8a\L	.	8ff\L	.
.	.	.	.	.	32ff\	.	32aa\	.	.	.	.	.	.	.	.	.	.	.	.	.	.	.	.	.	.	.	.	.	.	.	.	.	.
16F\	.	.	16cc\	.	32ff\	.	32aa\	.	.	.	.	.	.	.	.	.	.	.	.	.	.	.	.	.	.	.	.	.	.	.	.	.	.
.	.	.	.	.	32ff\JJJ	.	32aa\JJJ	.	.	.	.	.	.	.	.	.	.	.	.	.	.	.	.	.	.	.	.	.	.	.	.	.	.
16D\	.	.	16f\	.	32dd\LLL	.	32bbn\LLL	.	8D\J	.	.	8f\J	.	.	8b\J	.	.	8dd\J	.	.	.	.	.	.	.	.	.	.	.	8bn\	.	8dd\	.
.	.	.	.	.	32dd\	.	32bbn\	.	.	.	.	.	.	.	.	.	.	.	.	.	.	.	.	.	.	.	.	.	.	.	.	.	.
16D\	x n	.	16f\	.	32dd\	.	32bbn\	.	.	.	.	.	.	.	.	.	.	.	.	.	.	.	.	.	.	.	.	.	.	.	.	.	.
.	.	.	.	.	32dd\JJJ	.	32bbn\JJJ	.	.	.	.	.	.	.	.	.	.	.	.	.	.	.	.	.	.	.	.	.	.	.	.	.	.
16C\	.	.	16g\	.	32ee\LLL	.	32ccc\LLL	.	8C/	-a	.	8g\	-a	.	8cc\	-a	.	8ee\	-a	.	.	.	.	.	.	.	.	.	.	8cc\J	.	8ee\J	.
.	.	.	.	.	32ee\	.	32ccc\	.	.	.	.	.	.	.	.	.	.	.	.	.	.	.	.	.	.	.	.	.	.	.	.	.	.
16C\JJ	.	.	16g\JJ	.	32ee\	.	32ccc\	.	.	.	.	.	.	.	.	.	.	.	.	.	.	.	.	.	.	.	.	.	.	.	.	.	.
.	.	.	.	.	32ee\JJJ	.	32ccc\JJJ	.	.	.	.	.	.	.	.	.	.	.	.	.	.	.	.	.	.	.	.	.	.	.	.	.	.
=50	=50	=50	=50	=50	=50	=50	=50	=50	=50	=50	=50	=50	=50	=50	=50	=50	=50	=50	=50	=50	=50	=50	=50	=50	=50	=50	=50	=50	=50	=50	=50	=50	=50
!	!	!	!	!	!	!	!	!	!	!	!	!	!	!	!	!	!	!	!	!	!	!LO:DY:b:t=forto:color=red	!	!	!	!	!	!	!	!	!	!	!
16BB/LL	3	.	16g\LL	.	32ff\LLL	.	32ddd\LLL	.	8B\	glo-	.	8.d\	glo-	.	8.g\	glo-	.	8.ff\	glo-	.	4GG/	f	4.ryy	8dd\L	.	4g/	.	4dd\	.	4dd\	.	4ff\	.
.	.	.	.	.	32ff\	.	32ddd\	.	.	.	.	.	.	.	.	.	.	.	.	.	.	.	.	.	.	.	.	.	.	.	.	.	.
16BB/	.	.	16g\	.	32ff\	.	32ddd\	.	.	.	.	.	.	.	.	.	.	.	.	.	.	.	.	.	.	.	.	.	.	.	.	.	.
.	.	.	.	.	32ff\JJJ	.	32ddd\JJJ	.	.	.	.	.	.	.	.	.	.	.	.	.	.	.	.	.	.	.	.	.	.	.	.	.	.
16GG/	7	.	16g\	.	32dd\LLL	.	32ff\LLL	.	8G\	-ri-	.	.	.	.	.	.	.	.	.	.	.	.	.	16dd\L	.	.	.	.	.	.	.	.	.
.	.	.	.	.	32dd\	.	32ff\	.	.	.	.	.	.	.	.	.	.	.	.	.	.	.	.	.	.	.	.	.	.	.	.	.	.
16GG/	.	.	16g\	.	32dd\	.	32ff\	.	.	.	.	16d\	-ri-	.	16g\	-ri-	.	16ff\	-ri-	.	.	.	.	16dd\J	.	.	.	.	.	.	.	.	.
.	.	.	.	.	32dd\JJJ	.	32ff\JJJ	.	.	.	.	.	.	.	.	.	.	.	.	.	.	.	.	.	.	.	.	.	.	.	.	.	.
!	!	!	!	!	!	!	!	!	!	!	!	!	!	!	!LO:LB:g=original	!	!	!	!	!	!	!	!	!	!	!	!	!	!	!	!	!	!
16C/	.	.	16g\	.	32cc\LLL	.	32ee\LLL	.	8c\	-a	.	8c\	-a	.	8g\	-a	.	8ee\	-a	.	8C/	.	.	8ee\J	.	8cc\	.	8ee\	.	8cc\	.	8ee\	.
.	.	.	.	.	32cc\	.	32ee\	.	.	.	.	.	.	.	.	.	.	.	.	.	.	.	.	.	.	.	.	.	.	.	.	.	.
16C/JJ	.	.	16g\JJ	.	32cc\	.	32ee\	.	.	.	.	.	.	.	.	.	.	.	.	.	.	.	.	.	.	.	.	.	.	.	.	.	.
.	.	.	.	.	32cc\JJJ	.	32ee\JJJ	.	.	.	.	.	.	.	.	.	.	.	.	.	.	.	.	.	.	.	.	.	.	.	.	.	.
!	!	!	!	!	!	!	!	!	!LO:LB:g=original	!	!	!	!	!	!	!	!	!	!	!	!	!	!	!	!	!	!	!	!	!	!	!	!
=51	=51	=51	=51	=51	=51	=51	=51	=51	=51	=51	=51	=51	=51	=51	=51	=51	=51	=51	=51	=51	=51	=51	=51	=51	=51	=51	=51	=51	=51	=51	=51	=51	=51
!LO:TX:t=P:problem:mixed beam	!	!	!	!	!	!	!	!	!	!	!	!	!	!	!	!	!	!	!	!	!	!	!	!	!	!	!	!	!	!	!	!	!
16F\LL	.	.	16a\LL	.	32f/LLL	.	32dd\LLL	.	8F\L	tu-	.	8A/	tu-	.	8f\L	tu-	.	8dd\L	tu-	.	8r	.	4.ryy	8ff\L	.	8r	.	8r	.	8f/L	.	8dd\L	.
.	.	.	.	.	32f/	.	32dd\	.	.	.	.	.	.	.	.	.	.	.	.	.	.	.	.	.	.	.	.	.	.	.	.	.	.
16F\	.	.	16a\	.	32f/	.	32dd\	.	.	.	.	.	.	.	.	.	.	.	.	.	.	.	.	.	.	.	.	.	.	.	.	.	.
.	.	.	.	.	32f/JJJ	.	32dd\JJJ	.	.	.	.	.	.	.	.	.	.	.	.	.	.	.	.	.	.	.	.	.	.	.	.	.	.
16G\	4	.	16g\	.	32e/LLL	.	32cc\LLL	.	8G\	.	.	4G/	.	.	8e\	.	.	8cc\	.	.	8C/L	.	.	8ee\	.	8cc\L	.	8ee\L	.	8e/	.	8cc\	.
.	.	.	.	.	32e/	.	32cc\	.	.	.	.	.	.	.	.	.	.	.	.	.	.	.	.	.	.	.	.	.	.	.	.	.	.
16G\	.	.	16g\	.	32e/	.	32cc\	.	.	.	.	.	.	.	.	.	.	.	.	.	.	.	.	.	.	.	.	.	.	.	.	.	.
.	.	.	.	.	32e/JJJ	.	32cc\JJJ	.	.	.	.	.	.	.	.	.	.	.	.	.	.	.	.	.	.	.	.	.	.	.	.	.	.
16GG/	3	.	16g\	.	32d/LLL	.	32b\LLL	.	8GG/J	.	.	.	.	.	8d\J	.	.	8b\J	.	.	8GG/J	.	.	8dd\J	.	8g\J	.	8dd\J	.	8d/J	.	8b\J	.
.	.	.	.	.	32d/	.	32b\	.	.	.	.	.	.	.	.	.	.	.	.	.	.	.	.	.	.	.	.	.	.	.	.	.	.
16GG/JJ	.	.	16g\JJ	.	32d/	.	32b\	.	.	.	.	.	.	.	.	.	.	.	.	.	.	.	.	.	.	.	.	.	.	.	.	.	.
.	.	.	.	.	32d/JJJ	.	32b\JJJ	.	.	.	.	.	.	.	.	.	.	.	.	.	.	.	.	.	.	.	.	.	.	.	.	.	.
*	*	*	*	*	*	*	*Xtremolo	*	*	*	*	*	*	*	*	*	*	*	*	*	*	*	*	*	*	*	*	*	*	*	*	*	*
*	*	*	*	*	*Xtremolo	*	*	*	*	*	*	*	*	*	*	*	*	*	*	*	*	*	*	*	*	*	*	*	*	*	*	*	*
=52	=52	=52	=52	=52	=52	=52	=52	=52	=52	=52	=52	=52	=52	=52	=52	=52	=52	=52	=52	=52	=52	=52	=52	=52	=52	=52	=52	=52	=52	=52	=52	=52	=52
4C/	.	.	4g\	.	4G/ 4e	.	8cc\	.	4C/	-a	.	4G/	-a	.	4e\	-a	.	8cc\	-a	.	4C/	.	4.ryy	4cc\	.	4e/	.	4cc\	.	4e/	.	4cc\	.
.	.	.	.	.	.	.	8r	.	.	.	.	.	.	.	.	.	.	8r	.	.	.	.	.	.	.	.	.	.	.	.	.	.	.
!	!	!	!	!	!	!	!LO:TX:a:i:t=Dolce:color=red	!LO:DY:b:t=pia:color=red	!	!	!	!	!	!	!	!	!	!LO:TX:a:i:t=Dolce:color=red	!	!	!	!	!	!	!	!	!	!	!	!	!	!	!
8r	.	.	8r	.	8r	.	8g/	p	8r	.	.	8r	.	.	8r	.	.	8g|\	o-	.	8r	.	.	8r	.	8r	.	8r	.	8r	.	8r	.
=53	=53	=53	=53	=53	=53	=53	=53	=53	=53	=53	=53	=53	=53	=53	=53	=53	=53	=53	=53	=53	=53	=53	=53	=53	=53	=53	=53	=53	=53	=53	=53	=53	=53
!	!	!	!	!	!	!	!	!	!	!	!	!	!	!	!	!	!	!	!	!	!LO:TX:t=P:problem:12 zapisane ołówkiem	!	!	!	!	!	!	!	!	!	!	!	!
!LO:N:vis=0	!	!	!	!	!	!	!	!	!LO:TX:a:t=12	!	!	!	!	!	!	!	!	!	!	!	!LO:TX:a:t=12:color=grey	!	!	!	!	!	!	!	!	!LO:TX:a:t=6	!	!LO:TX:a:t=6	!
!LO:TX:a:t=2	!	!	!LO:TX:a:t=1	!	!LO:TX:a:t=1	!	!	!	!LO:N:vis=00	!	!	!LO:N:vis=00	!	!	!LO:N:vis=00	!	!	!	!	!	!LO:N:vis=00	!	!	!LO:N:vis=00	!	!LO:TX:a:t=1	!	!LO:TX:a:t=1	!	!LO:N:vis=00	!	!LO:N:vis=00	!
2.r	.	.	4.r	.	4.r	.	8cc'\L	.	1.r	.	.	1.r	.	.	1.r	.	.	8cc|\L	-San-	.	1.r	.	4.ryy	1.r	.	4.r	.	4.r	.	1.r	.	1.r	.
.	.	.	.	.	.	.	8g'\	.	.	.	.	.	.	.	.	.	.	8g|\	.	.	.	.	.	.	.	.	.	.	.	.	.	.	.
.	.	.	.	.	.	.	8ee'\J	.	.	.	.	.	.	.	.	.	.	8ee|\J	.	.	.	.	.	.	.	.	.	.	.	.	.	.	.
=54	=54	=54	=54	=54	=54	=54	=54	=54	=54	=54	=54	=54	=54	=54	=54	=54	=54	=54	=54	=54	=54	=54	=54	=54	=54	=54	=54	=54	=54	=54	=54	=54	=54
.	.	.	8r	.	4r	.	4cc'\	.	.	.	.	.	.	.	.	.	.	4cc\	-na	.	.	.	4.ryy	.	.	8r	.	8r	.	.	.	.	.
.	.	.	8r	.	.	.	.	.	.	.	.	.	.	.	.	.	.	.	.	.	.	.	.	.	.	8r	.	8r	.	.	.	.	.
!	!	!	!LO:TX:a:i:t=Dolce:color=red	!	!LO:TX:a:i:t=Dolce:color=red	!LO:DY:b:t=pia:color=red	!	!	!	!	!	!	!	!	!	!	!	!	!	!	!	!	!	!	!	!	!LO:DY:b:t=pia:color=red	!	!LO:DY:a:t=pia:color=red	!	!	!	!
.	.	.	8e\	.	16G/LL 16e	p	(16gg\LL	.	.	.	.	.	.	.	.	.	.	16gg\LL	o-	.	.	.	.	.	.	8e/	p	8cc\	p	.	.	.	.
.	.	.	.	.	16g/JJ	.	16ee\JJ)	.	.	.	.	.	.	.	.	.	.	16ee\JJ	.	.	.	.	.	.	.	.	.	.	.	.	.	.	.
!	!	!	!	!	!	!	!LO:LB:g=original	!	!	!	!	!	!	!	!	!	!	!	!	!	!	!	!	!	!	!	!	!	!	!	!	!	!
=55	=55	=55	=55	=55	=55	=55	=55	=55	=55	=55	=55	=55	=55	=55	=55	=55	=55	=55	=55	=55	=55	=55	=55	=55	=55	=55	=55	=55	=55	=55	=55	=55	=55
!LO:TX:b:t=pedal	!	!LO:DY:b:t=pia:color=red	!	!	!	!	!	!	!	!	!	!	!	!	!	!	!	!	!	!	!	!	!	!	!	!	!	!	!	!	!	!	!
(4.GG/	.	p	8F/L	.	(16f/LL	.	8dd|\L	.	.	.	.	.	.	.	.	.	.	8dd\	-San-	.	.	.	4.ryy	.	.	4.g/	.	4.dd\	.	.	.	.	.
.	.	.	.	.	16g/)	.	.	.	.	.	.	.	.	.	.	.	.	.	.	.	.	.	.	.	.	.	.	.	.	.	.	.	.
.	.	.	8D/	.	(16f/	.	(16dd\L	.	.	.	.	.	.	.	.	.	.	16dd\LL	-na	.	.	.	.	.	.	.	.	.	.	.	.	.	.
.	.	.	.	.	16g/)	.	16ff\	.	.	.	.	.	.	.	.	.	.	16ff\JJ	.	.	.	.	.	.	.	.	.	.	.	.	.	.	.
.	.	.	8G/J	.	(16f/	.	16dd\	.	.	.	.	.	.	.	.	.	.	16dd\	in	.	.	.	.	.	.	.	.	.	.	.	.	.	.
.	.	.	.	.	16g/JJ)	.	16b\JJ)	.	.	.	.	.	.	.	.	.	.	16b\	ex-	.	.	.	.	.	.	.	.	.	.	.	.	.	.
!	!	!	!LO:LB:g=original	!	!	!	!	!	!	!	!	!	!	!	!	!	!	!LO:LB:g=original	!	!	!	!	!	!	!	!	!	!	!	!	!	!	!
=56	=56	=56	=56	=56	=56	=56	=56	=56	=56	=56	=56	=56	=56	=56	=56	=56	=56	=56	=56	=56	=56	=56	=56	=56	=56	=56	=56	=56	=56	=56	=56	=56	=56
4C/)	.	.	8C/	.	(16G/LL 16e	.	8cc\L	.	.	.	.	.	.	.	.	.	.	8cc\	-cel-	.	.	.	4.ryy	.	.	4.e/	.	4.cc\	.	.	.	.	.
.	.	.	.	.	16g/)	.	.	.	.	.	.	.	.	.	.	.	.	.	.	.	.	.	.	.	.	.	.	.	.	.	.	.	.
.	.	.	8r	.	(16e/	.	8g\J	.	.	.	.	.	.	.	.	.	.	8g\	-ſis	.	.	.	.	.	.	.	.	.	.	.	.	.	.
.	.	.	.	.	16g/)	.	.	.	.	.	.	.	.	.	.	.	.	.	.	.	.	.	.	.	.	.	.	.	.	.	.	.	.
8r	.	.	8E/	.	(16G/ 16e	.	(16gg\LL	.	.	.	.	.	.	.	.	.	.	16gg|\LL	in	.	.	.	.	.	.	.	.	.	.	.	.	.	.
.	.	.	.	.	16g/JJ)	.	16ee\JJ)	.	.	.	.	.	.	.	.	.	.	16ee|\JJ	.	.	.	.	.	.	.	.	.	.	.	.	.	.	.
!	!	!	!	!	!LO:LB:g=original	!	!	!	!	!	!	!	!	!	!	!	!	!	!	!	!	!	!	!	!	!	!	!	!	!	!	!	!
=57	=57	=57	=57	=57	=57	=57	=57	=57	=57	=57	=57	=57	=57	=57	=57	=57	=57	=57	=57	=57	=57	=57	=57	=57	=57	=57	=57	=57	=57	=57	=57	=57	=57
.	.	.	.	.	.	.	16qqee/	.	.	.	.	.	.	.	.	.	.	16qqee/	.	.	.	.	.	.	.	.	.	.	.	.	.	.	.
!	!	!	!	!	!	!	!	!	!LO:N:vis=00	!	!	!LO:N:vis=00	!	!	!LO:N:vis=00	!	!	!	!	!	!LO:N:vis=00	!	!	!LO:N:vis=00	!	!	!	!	!	!LO:N:vis=0	!	!LO:N:vis=0	!
(4.GG/	.	.	8F/L	.	(16f/LL	.	8dd\L	.	1.r	.	.	1.r	.	.	1.r	.	.	8dd\	ex-	.	1.r	.	4.ryy	1.r	.	4.g/	.	4.dd\	.	2.r	.	2.r	.
.	.	.	.	.	16g/)	.	.	.	.	.	.	.	.	.	.	.	.	.	.	.	.	.	.	.	.	.	.	.	.	.	.	.	.
.	.	.	8D/	.	(16f/	.	(16dd\L	.	.	.	.	.	.	.	.	.	.	16dd\LL	-cel-	.	.	.	.	.	.	.	.	.	.	.	.	.	.
.	.	.	.	.	16g/)	.	16ff\	.	.	.	.	.	.	.	.	.	.	16ff\	.	.	.	.	.	.	.	.	.	.	.	.	.	.	.
.	.	.	8G/J	.	(16f/	.	16dd\	.	.	.	.	.	.	.	.	.	.	16dd\	.	.	.	.	.	.	.	.	.	.	.	.	.	.	.
.	.	.	.	.	16g/JJ)	.	16b\JJ)	.	.	.	.	.	.	.	.	.	.	16b\JJ	.	.	.	.	.	.	.	.	.	.	.	.	.	.	.
!LO:LB:g=original	!	!	!	!	!	!	!	!	!	!	!	!	!	!	!	!	!	!	!	!	!	!	!	!	!	!	!	!	!	!	!	!	!
=58	=58	=58	=58	=58	=58	=58	=58	=58	=58	=58	=58	=58	=58	=58	=58	=58	=58	=58	=58	=58	=58	=58	=58	=58	=58	=58	=58	=58	=58	=58	=58	=58	=58
4C/)	.	.	4C/	.	4G/ 4e	.	4cc\	.	.	.	.	.	.	.	.	.	.	4cc\	-sis	.	.	.	4.ryy	.	.	4e/	.	4cc\	.	.	.	.	.
!	!	!	!	!	!	!	!	!	!	!	!	!	!	!	!	!	!	!	!	!	!	!	!	!	!	!	!	!LO:TX:b:t=NB.	!	!	!	!	!
8r	.	.	8r	.	8r	.	8r	.	.	.	.	.	.	.	.	.	.	8r	.	.	.	.	.	.	.	8r	.	8r	.	.	.	.	.
!	!	!	!	!	!	!	!	!	!	!	!	!	!	!	!	!	!	!	!	!	!	!	!	!	!	!	!	!	!	!	!	!LO:LB:g=original	!
=59	=59	=59	=59	=59	=59	=59	=59	=59	=59	=59	=59	=59	=59	=59	=59	=59	=59	=59	=59	=59	=59	=59	=59	=59	=59	=59	=59	=59	=59	=59	=59	=59	=59
*	*	*	*	*	*^	*	*	*	*	*	*	*	*	*	*	*	*	*	*	*	*	*	*	*	*	*	*	*	*	*	*	*	*
*	*	*	*	*	*cue	*	*	*cue	*	*	*	*	*	*	*	*	*	*	*	*	*	*	*	*	*	*	*	*	*	*	*	*	*	*
!	!	!	!	!	!LO:TX:b:t=1	!	!	!	!	!	!	!	!	!	!	!	!	!	!LO:TX:a:t=6	!	!	!	!	!	!	!	!LO:TX:b:i:t=Dolce:color=red	!	!LO:TX:a:i:t=Dolce:color=red	!	!	!	!	!
!LO:TX:a:t=Senza organo	!	!	!LO:TX:a:i:t=Solo	!	!LO:TX:a:t=oboi	!	!	!LO:TX:a:t=oboi	!	!	!	!	!	!	!	!	!	!	!LO:N:vis=00	!	!	!	!	!	!	!	!LO:TX:a:i:t=Solo	!	!LO:TX:b:i:t=Solo	!	!LO:TX:b:i:t=Solo	!	!LO:TX:b:i:t=Solo	!
8GG|/	.	.	8G/L	.	8b/L	4.rg	.	8ff/L	.	.	.	.	.	.	.	.	.	.	1.r	.	.	.	.	4.ryy	.	.	8g/L	.	8dd\L	.	8b|\L	.	8ff\L	.
!	!	!	!	!	!	!	!	!	!	!	!	!	!	!	!	!	!	!	!	!	!	!	!	!	!	!	!	!	!	!	!LO:TX:b:i:t=Dolce:color=red	!	!	!
!	!	!	!	!	!	!	!	!	!	!	!	!	!	!	!	!	!	!	!	!	!	!	!	!	!	!	!	!	!	!	!	!	!LO:TX:b:i:t=Dolce:color=red	!
8BB|/	.	.	8B/	.	8b/	.	.	8ff/	.	.	.	.	.	.	.	.	.	.	.	.	.	.	.	.	.	.	8g/	.	8dd\	.	8b|\	.	8ff\	.
8GG|/	.	.	8G/J	.	8b/J	.	.	8ff/J	.	.	.	.	.	.	.	.	.	.	.	.	.	.	.	.	.	.	8g/J	.	8dd\J	.	8b|\J	.	8ff\J	.
=60	=60	=60	=60	=60	=60	=60	=60	=60	=60	=60	=60	=60	=60	=60	=60	=60	=60	=60	=60	=60	=60	=60	=60	=60	=60	=60	=60	=60	=60	=60	=60	=60	=60	=60
!	!	!	!	!	!LO:TX:b:t=2	!	!	!	!	!	!	!	!	!	!	!	!	!	!	!	!	!	!	!	!	!	!	!	!	!	!	!	!	!
8C|\	.	.	8c\L	.	8cc/L	4.rg	.	(16ff/LL	.	.	.	.	.	.	.	.	.	.	.	.	.	.	.	4.ryy	.	.	4cc\	.	4ee\	.	8cc\	.	(16ff\LL	.
.	.	.	.	.	.	.	.	16ee/)	.	.	.	.	.	.	.	.	.	.	.	.	.	.	.	.	.	.	.	.	.	.	.	.	16ee\)	.
!	!	!	!	!	!	!	!	!	!	!	!	!	!	!	!	!	!	!	!	!	!	!	!	!	!	!	!	!	!	!	!LO:LB:g=original	!	!	!
8D|\	.	.	8d\	.	16ff/L	.	.	(16aa/	.	.	.	.	.	.	.	.	.	.	.	.	.	.	.	.	.	.	.	.	.	.	(16ff\LL	.	(16aa\	.
.	.	.	.	.	16ee/J	.	.	16gg/J)	.	.	.	.	.	.	.	.	.	.	.	.	.	.	.	.	.	.	.	.	.	.	16ee\J)	.	16gg\J)	.
8E|\	.	.	8e\J	.	8ee/J	.	.	8gg/J	.	.	.	.	.	.	.	.	.	.	.	.	.	.	.	.	.	.	8r	.	8r	.	8ee\J	.	8gg\J	.
=61	=61	=61	=61	=61	=61	=61	=61	=61	=61	=61	=61	=61	=61	=61	=61	=61	=61	=61	=61	=61	=61	=61	=61	=61	=61	=61	=61	=61	=61	=61	=61	=61	=61	=61
!	!	!	!	!	!LO:TX:b:t=3	!	!	!	!	!LO:N:vis=00	!	!	!LO:N:vis=00	!	!	!LO:N:vis=00	!	!	!	!	!	!LO:N:vis=00	!	!	!LO:N:vis=00	!	!	!	!	!	!	!	!	!
8F|\	.	.	8f\L	.	8dd/L	4.rg	.	8ff/L	.	1.r	.	.	1.r	.	.	1.r	.	.	.	.	.	1.r	.	4.ryy	1.r	.	8r	.	8r	.	8dd\L	.	8ff\L	.
8G|\	.	.	8g\	.	8cc/	.	.	8ee/	.	.	.	.	.	.	.	.	.	.	.	.	.	.	.	.	.	.	8cc\L	.	8ee\L	.	8cc\	.	8ee\	.
8GG|/	.	.	8G/J	.	8f/J	.	.	8dd/J	.	.	.	.	.	.	.	.	.	.	.	.	.	.	.	.	.	.	8g/J	.	8dd\J	.	8f/J	.	8dd\J	.
=62	=62	=62	=62	=62	=62	=62	=62	=62	=62	=62	=62	=62	=62	=62	=62	=62	=62	=62	=62	=62	=62	=62	=62	=62	=62	=62	=62	=62	=62	=62	=62	=62	=62	=62
!	!	!	!	!	!LO:TX:b:t=4	!	!	!	!	!	!	!	!	!	!	!	!	!	!	!	!	!	!	!	!	!	!	!	!	!	!	!	!	!
4C|/	.	.	4c\	.	8e/	4.rg	.	8cc/	.	.	.	.	.	.	.	.	.	.	.	.	.	.	.	4.ryy	.	.	8e/	.	8cc\	.	8e/	.	8cc\	.
.	.	.	.	.	8r	.	.	8r	.	.	.	.	.	.	.	.	.	.	.	.	.	.	.	.	.	.	8r	.	8r	.	8r	.	8r	.
!	!	!	!	!	!	!	!	!	!	!	!	!	!	!	!	!	!	!	!	!	!	!	!	!	!	!	!	!	!	!	!LO:TX:b:t=NB.	!	!	!
!	!	!	!	!	!	!	!	!	!	!	!	!	!	!	!	!	!	!	!	!	!	!	!	!	!	!	!	!	!	!	!	!	!LO:TX:b:t=NB.	!
8r	.	.	8r	.	8gg/	.	.	8gg/	.	.	.	.	.	.	.	.	.	.	.	.	.	.	.	.	.	.	8r	.	8r	.	8ee|\	.	8gg|\	.
=63	=63	=63	=63	=63	=63	=63	=63	=63	=63	=63	=63	=63	=63	=63	=63	=63	=63	=63	=63	=63	=63	=63	=63	=63	=63	=63	=63	=63	=63	=63	=63	=63	=63	=63
!LO:N:vis=0	!	!	!LO:TX:a:t=2	!	!	!	!	!	!	!	!	!	!	!	!	!	!	!	!	!	!	!	!	!	!	!	!	!	!	!	!	!	!	!
!LO:TX:a:t=2	!	!	!LO:N:vis=0	!	!LO:TX:b:t=5	!	!	!	!	!	!	!	!	!	!	!	!	!	!LO:N:vis=0	!	!	!	!	!	!	!	!LO:TX:b:t=NB:color=red	!	!	!	!	!	!	!
2.r	.	.	2.r	.	8ee/	4.r	.	8ee/	.	.	.	.	.	.	.	.	.	.	2.r	.	.	.	.	4.ryy	.	.	8r	.	8r	.	8cc|\	.	8ee|\	.
!	!	!	!	!	!	!	!	!	!	!	!	!	!	!	!	!	!	!	!	!	!	!	!	!	!	!	!LO:TX:b:i:t=Solo:color=red	!	!	!	!	!	!	!
.	.	.	.	.	8r	.	.	8r	.	.	.	.	.	.	.	.	.	.	.	.	.	.	.	.	.	.	8r	.	8r	.	8r	.	8r	.
!	!	!	!	!	!	!	!	!	!	!	!	!	!	!	!	!	!	!	!	!	!	!	!	!	!	!	!	!	!LO:TX:b:i:t=Solo	!	!	!	!	!
!	!	!	!	!	!	!	!	!LO:TX:a:t=Corno	!	!	!	!	!	!	!	!	!	!	!	!	!	!	!	!	!	!	!	!	!LO:TX:a:t=NB.:color=red	!	!	!	!	!
.	.	.	.	.	8dd/	.	.	8dd/	.	.	.	.	.	.	.	.	.	.	.	.	.	.	.	.	.	.	8g/	.	8dd\	.	8r	.	8r	.
=64	=64	=64	=64	=64	=64	=64	=64	=64	=64	=64	=64	=64	=64	=64	=64	=64	=64	=64	=64	=64	=64	=64	=64	=64	=64	=64	=64	=64	=64	=64	=64	=64	=64	=64
!	!	!	!	!	!LO:TX:b:t=6	!	!	!	!	!	!	!	!	!	!	!	!	!	!	!	!	!	!	!	!	!	!	!	!	!	!	!	!LO:TX:a:t=1	!
.	.	.	.	.	4cc/	4.rg	.	4cc/	.	.	.	.	.	.	.	.	.	.	.	.	.	.	.	4.ryy	.	.	4e/	.	4cc\	.	4.r	.	4.r	.
.	.	.	.	.	8r	.	.	8r	.	.	.	.	.	.	.	.	.	.	.	.	.	.	.	.	.	.	8r	.	8r	.	.	.	.	.
*	*	*	*	*	*v	*v	*	*	*	*	*	*	*	*	*	*	*	*	*	*	*	*	*	*	*	*	*	*	*	*	*	*	*	*
==	==	==	==	==	==	==	==	==	==	==	==	==	==	==	==	==	==	==	==	==	==	==	==	==	==	==	==	==	==	==	==	==	==
*-	*-	*-	*-	*-	*-	*-	*-	*-	*-	*-	*-	*-	*-	*-	*-	*-	*-	*-	*-	*-	*-	*-	*-	*-	*-	*-	*-	*-	*-	*-	*-	*-	*-
!!!system-decoration: [(s1,s2)][(s3,s4,s5,s6)][(s7)][(s8,s9,s10,s11)][(s12,s13,s14)]s15
!!!RDF**kern: > = above
!!!RDF**kern: < = below
!!!RDF**kern: | = vertical stroke
!!!ENC: Katarzyna Serwa
!!!END: 2020-11-02
!!!ENC: Natalia Wrzos
!!!END: 2022-06-13
!!!YEC: Copyright 2022 Narodowy Instytut Fryderyka Chopina (https://polishscores.org)
!!!YEM: License CC-BY-4.0 (https://creativecommons.org/licenses/by/4.0)
